;FLAVOR:Marlin
;TIME:1983
;Filament used: 1.04563m
;Layer height: 0.12
;MINX:94.154
;MINY:100.355
;MINZ:0.12
;MAXX:140.776
;MAXY:142.922
;MAXZ:5.28
;Generated with Cura_SteamEngine 5.4.0
M140 S50
M105
M190 S50
M104 S200
M105
M109 S200
M82 ;absolute extrusion mode
; Ender 3 Custom Start G-code
G92 E0 ; Reset Extruder
G28 ; Home all axes
G1 Z2.0 F3000 ; Move Z Axis up little to prevent scratching of Heat Bed
G1 X0.1 Y20 Z0.3 F5000.0 ; Move to start position
G1 X0.1 Y200.0 Z0.3 F1500.0 E15 ; Draw the first line
G1 X0.4 Y200.0 Z0.3 F5000.0 ; Move to side a little
G1 X0.4 Y20 Z0.3 F1500.0 E30 ; Draw the second line
G92 E0 ; Reset Extruder
G1 Z2.0 F3000 ; Move Z Axis up little to prevent scratching of Heat Bed
G1 X5 Y20 Z0.3 F5000.0 ; Move over to prevent blob squish
G92 E0
G92 E0
G1 F2700 E-5
;LAYER_COUNT:44
;LAYER:0
M107
;MESH:Anchor.stl(2)
G0 F6000 X101.455 Y112.686 Z0.12
;TYPE:WALL-INNER
G1 F2700 E0
G1 F1200 X100.834 Y112.596 E0.01252
G1 X100.411 Y112.489 E0.02123
G1 X100.013 Y112.347 E0.02966
G1 X99.481 Y112.1 E0.04137
G1 X98.914 Y111.723 E0.05496
G1 X98.396 Y111.269 E0.0687
G1 X97.963 Y110.746 E0.08225
G1 X97.641 Y110.215 E0.09464
G1 X97.481 Y109.885 E0.10196
G1 X97.263 Y109.302 E0.11438
G1 X97.141 Y108.703 E0.12658
G1 X97.097 Y108.316 E0.13436
G1 X97.092 Y107.689 E0.14687
G1 X97.161 Y107.163 E0.15746
G1 X97.278 Y106.675 E0.16747
G1 X97.416 Y106.268 E0.17605
G1 X97.593 Y105.88 E0.18456
G1 X97.825 Y105.475 E0.19387
G1 X98.082 Y105.112 E0.20275
G1 X98.397 Y104.749 E0.21234
G1 X98.739 Y104.427 E0.22171
G1 X99.086 Y104.159 E0.23046
G1 X99.44 Y103.934 E0.23883
G1 X99.884 Y103.71 E0.24876
G1 X100.263 Y103.562 E0.25688
G1 X100.751 Y103.424 E0.267
G1 X101.241 Y103.342 E0.27691
G1 X101.625 Y103.314 E0.28459
G1 X102.108 Y103.323 E0.29424
G1 X102.542 Y103.372 E0.30295
G1 X103.11 Y103.495 E0.31455
G1 X103.739 Y103.733 E0.32797
G1 X104.28 Y104.033 E0.34031
G1 X104.643 Y104.284 E0.34912
G1 X104.994 Y104.585 E0.35835
G1 X105.289 Y104.889 E0.3668
G1 X105.683 Y105.392 E0.37955
G1 X106.016 Y105.977 E0.39299
G1 X106.261 Y106.598 E0.40631
G1 X106.383 Y107.107 E0.41675
G1 X106.453 Y107.607 E0.42683
G1 X106.469 Y108.043 E0.43554
G1 X106.436 Y108.601 E0.44669
G1 X106.288 Y109.313 E0.4612
G1 X106.109 Y109.805 E0.47165
G1 X105.925 Y110.192 E0.4802
G1 X105.603 Y110.732 E0.49275
G1 X105.166 Y111.258 E0.5064
G1 X104.734 Y111.643 E0.51794
G1 X104.359 Y111.919 E0.52724
G1 X103.921 Y112.182 E0.53743
G1 X103.37 Y112.415 E0.54937
G1 X102.955 Y112.543 E0.55804
G1 X102.475 Y112.641 E0.56781
G1 X102.016 Y112.687 E0.57702
G1 X101.455 Y112.686 E0.58822
G0 F6000 X101.493 Y112.288
G1 F1200 X100.994 Y112.22 E0.59827
G1 X100.572 Y112.119 E0.60692
G1 X100.163 Y111.976 E0.61557
G1 X99.681 Y111.753 E0.62617
G1 X99.159 Y111.407 E0.63867
G1 X98.687 Y110.989 E0.65125
G1 X98.293 Y110.515 E0.66355
G1 X98.001 Y110.04 E0.67468
G1 X97.833 Y109.693 E0.68237
G1 X97.647 Y109.191 E0.69305
G1 X97.538 Y108.657 E0.70393
G1 X97.496 Y108.286 E0.71138
G1 X97.489 Y107.741 E0.72226
G1 X97.555 Y107.232 E0.7325
G1 X97.648 Y106.832 E0.7407
G1 X97.787 Y106.417 E0.74943
G1 X97.954 Y106.054 E0.7574
G1 X98.161 Y105.693 E0.76571
G1 X98.41 Y105.342 E0.7743
G1 X98.685 Y105.027 E0.78264
G1 X98.968 Y104.758 E0.79043
G1 X99.34 Y104.47 E0.79982
G1 X99.679 Y104.258 E0.8078
G1 X100.047 Y104.075 E0.816
G1 X100.442 Y103.924 E0.82444
G1 X100.835 Y103.816 E0.83257
G1 X101.271 Y103.741 E0.8414
G1 X101.645 Y103.713 E0.84889
G1 X102.08 Y103.722 E0.85757
G1 X102.488 Y103.769 E0.86577
G1 X103 Y103.88 E0.87622
G1 X103.577 Y104.099 E0.88854
G1 X104.061 Y104.369 E0.8996
G1 X104.397 Y104.6 E0.90773
G1 X104.717 Y104.875 E0.91615
G1 X104.992 Y105.158 E0.92403
G1 X105.344 Y105.605 E0.93538
G1 X105.632 Y106.102 E0.94685
G1 X105.865 Y106.673 E0.95915
G1 X105.991 Y107.19 E0.96977
G1 X106.05 Y107.596 E0.97796
G1 X106.068 Y108.044 E0.98691
G1 X106.037 Y108.565 E0.99732
G1 X105.918 Y109.15 E1.00924
G1 X105.737 Y109.655 E1.01994
G1 X105.543 Y110.058 E1.02887
G1 X105.279 Y110.495 E1.03906
G1 X104.878 Y110.979 E1.0516
G1 X104.482 Y111.332 E1.06219
G1 X104.145 Y111.58 E1.07054
G1 X103.733 Y111.829 E1.08014
G1 X103.232 Y112.039 E1.09098
G1 X102.843 Y112.158 E1.0991
G1 X102.372 Y112.25 E1.10868
G1 X101.968 Y112.288 E1.11678
G1 X101.493 Y112.288 E1.12626
G1 F2700 E-3.87374
G0 F6000 X101.493 Y112.588
G0 X102.504 Y112.819
G0 X102.644 Y114.124
G0 X102.799 Y114.308
G1 F2700 E1.12626
G1 F1200 X103.346 Y114.191 E1.13742
G1 X103.757 Y114.072 E1.14596
G1 X104.184 Y113.915 E1.15504
G1 X104.584 Y113.734 E1.1638
G1 X104.991 Y113.518 E1.17299
G1 X105.36 Y113.285 E1.1817
G1 X105.807 Y112.962 E1.19271
G1 X106.209 Y112.597 E1.20354
G1 X106.533 Y112.261 E1.21286
G1 X106.817 Y111.921 E1.2217
G1 X107.133 Y111.488 E1.2324
G1 X107.425 Y110.981 E1.24407
G1 X107.623 Y110.566 E1.25325
G1 X107.79 Y110.152 E1.26216
G1 X107.923 Y109.731 E1.27097
G1 X108.023 Y109.321 E1.27939
G1 X108.122 Y108.752 E1.29092
G1 X108.159 Y108.198 E1.302
G1 X108.159 Y107.808 E1.30978
G1 X108.12 Y107.284 E1.32026
G1 X108.062 Y106.871 E1.32859
G1 X107.973 Y106.454 E1.3371
G1 X107.845 Y106.015 E1.34622
G1 X107.692 Y105.597 E1.3551
G1 X107.521 Y105.213 E1.36349
G1 X107.301 Y104.802 E1.3728
G1 X107 Y104.323 E1.38409
G1 X106.645 Y103.871 E1.39556
G1 X106.348 Y103.544 E1.40437
G1 X105.946 Y103.161 E1.41545
G1 X105.525 Y102.833 E1.4261
G1 X105.054 Y102.516 E1.43743
G1 X104.57 Y102.261 E1.44835
G1 X104.148 Y102.074 E1.45756
G1 X103.754 Y101.931 E1.46592
G1 X103.304 Y101.803 E1.47526
G1 X102.883 Y101.713 E1.48385
G1 X102.453 Y101.654 E1.49251
G1 X101.987 Y101.621 E1.50184
G1 X101.536 Y101.622 E1.51084
G1 X100.779 Y101.69 E1.526
G1 X100.207 Y101.812 E1.53768
G1 X99.798 Y101.931 E1.54618
G1 X99.372 Y102.088 E1.55524
G1 X98.963 Y102.271 E1.56418
G1 X98.573 Y102.479 E1.573
G1 X98.11 Y102.769 E1.5839
G1 X97.658 Y103.123 E1.59536
G1 X97.345 Y103.407 E1.60379
G1 X97.021 Y103.743 E1.61311
G1 X96.745 Y104.072 E1.62168
G1 X96.406 Y104.55 E1.63337
G1 X96.134 Y105.016 E1.64414
G1 X95.921 Y105.463 E1.65402
G1 X95.766 Y105.851 E1.66236
G1 X95.631 Y106.272 E1.67118
G1 X95.532 Y106.682 E1.6796
G1 X95.451 Y107.143 E1.68894
G1 X95.401 Y107.666 E1.69942
G1 X95.397 Y108.225 E1.71058
G1 X95.429 Y108.666 E1.7194
G1 X95.489 Y109.111 E1.72837
G1 X95.583 Y109.549 E1.7373
G1 X95.711 Y109.99 E1.74647
G1 X95.856 Y110.388 E1.75492
G1 X96.044 Y110.813 E1.7642
G1 X96.256 Y111.206 E1.77311
G1 X96.507 Y111.605 E1.78251
G1 X96.754 Y111.944 E1.79088
G1 X97.039 Y112.283 E1.79972
G1 X97.348 Y112.6 E1.80856
G1 X97.696 Y112.912 E1.81788
G1 X98.028 Y113.169 E1.82626
G1 X98.411 Y113.425 E1.83546
G1 X98.842 Y113.671 E1.84536
G1 X99.181 Y113.834 E1.85287
G1 X99.604 Y114.005 E1.86197
G1 X100.033 Y114.144 E1.87097
G1 X100.458 Y114.248 E1.8797
G1 X100.886 Y114.323 E1.88837
G1 X101.468 Y114.383 E1.90005
G1 X102.125 Y114.381 E1.91316
G1 X102.799 Y114.308 E1.92669
G0 F6000 X102.852 Y114.706
G1 F1200 X103.444 Y114.579 E1.93877
G1 X103.882 Y114.452 E1.94787
G1 X104.335 Y114.286 E1.9575
G1 X104.761 Y114.093 E1.96683
G1 X105.151 Y113.887 E1.97564
G1 X105.585 Y113.616 E1.98585
G1 X106.077 Y113.258 E1.99799
G1 X106.488 Y112.884 E2.00908
G1 X106.831 Y112.528 E2.01894
G1 X107.132 Y112.167 E2.02832
G1 X107.467 Y111.709 E2.03965
G1 X107.779 Y111.168 E2.05211
G1 X107.99 Y110.727 E2.06187
G1 X108.167 Y110.287 E2.07133
G1 X108.309 Y109.839 E2.08071
G1 X108.415 Y109.403 E2.08966
G1 X108.52 Y108.801 E2.10186
G1 X108.559 Y108.21 E2.11368
G1 X108.558 Y107.763 E2.1226
G1 X108.521 Y107.269 E2.13249
G1 X108.456 Y106.802 E2.14189
G1 X108.361 Y106.356 E2.15099
G1 X108.225 Y105.89 E2.16068
G1 X108.063 Y105.447 E2.1701
G1 X107.899 Y105.077 E2.17817
G1 X107.647 Y104.601 E2.18892
G1 X107.328 Y104.093 E2.20089
G1 X106.951 Y103.613 E2.21307
G1 X106.635 Y103.264 E2.22247
G1 X106.209 Y102.858 E2.23421
G1 X105.76 Y102.509 E2.24556
G1 X105.259 Y102.172 E2.25761
G1 X104.745 Y101.901 E2.2692
G1 X104.298 Y101.703 E2.27896
G1 X103.878 Y101.55 E2.28788
G1 X103.401 Y101.414 E2.29778
G1 X102.952 Y101.318 E2.30694
G1 X102.494 Y101.256 E2.31617
G1 X102.001 Y101.221 E2.32603
G1 X101.436 Y101.221 E2.3373
G1 X100.689 Y101.3 E2.35229
G1 X100.11 Y101.424 E2.36411
G1 X99.673 Y101.551 E2.37319
G1 X99.221 Y101.718 E2.38281
G1 X98.787 Y101.912 E2.3923
G1 X98.373 Y102.133 E2.40166
G1 X97.88 Y102.441 E2.41326
G1 X97.4 Y102.817 E2.42543
G1 X97.066 Y103.12 E2.43443
G1 X96.723 Y103.475 E2.44428
G1 X96.429 Y103.827 E2.45343
G1 X96.021 Y104.41 E2.46763
G1 X95.78 Y104.83 E2.4773
G1 X95.565 Y105.277 E2.48719
G1 X95.389 Y105.716 E2.49663
G1 X95.246 Y106.164 E2.50602
G1 X95.14 Y106.601 E2.51499
G1 X95.055 Y107.088 E2.52486
G1 X95.015 Y107.474 E2.5326
G1 X94.996 Y107.785 E2.53882
G1 X94.997 Y108.24 E2.5479
G1 X95.03 Y108.696 E2.55702
G1 X95.095 Y109.181 E2.56679
G1 X95.195 Y109.647 E2.5763
G1 X95.331 Y110.114 E2.58601
G1 X95.484 Y110.538 E2.595
G1 X95.685 Y110.989 E2.60485
G1 X95.896 Y111.383 E2.61377
G1 X96.175 Y111.829 E2.62427
G1 X96.439 Y112.191 E2.63321
G1 X96.743 Y112.551 E2.64262
G1 X97.071 Y112.889 E2.65202
G1 X97.44 Y113.219 E2.66189
G1 X97.794 Y113.494 E2.67084
G1 X98.199 Y113.765 E2.68056
G1 X98.61 Y114.002 E2.69003
G1 X99.019 Y114.2 E2.6991
G1 X99.467 Y114.381 E2.70874
G1 X99.923 Y114.53 E2.71832
G1 X100.376 Y114.64 E2.72762
G1 X100.83 Y114.719 E2.73682
G1 X101.423 Y114.783 E2.74872
G1 X102.129 Y114.782 E2.76281
G1 X102.852 Y114.706 E2.77732
G0 F6000 X102.8 Y115.113
;TYPE:WALL-OUTER
G1 F1200 X103.094 Y115.064 E2.78326
G1 X103.542 Y114.967 E2.79241
G1 X104.007 Y114.832 E2.80207
G1 X104.487 Y114.656 E2.81228
G1 X104.937 Y114.453 E2.82213
G1 X105.393 Y114.21 E2.83244
G1 X105.809 Y113.948 E2.84225
G1 X106.212 Y113.656 E2.85218
G1 X106.409 Y113.496 E2.85725
G1 X106.766 Y113.172 E2.86687
G1 X107.129 Y112.796 E2.8773
G1 X107.448 Y112.413 E2.88724
G1 X107.731 Y112.026 E2.89681
G1 X107.874 Y111.804 E2.90208
G1 X108.133 Y111.354 E2.91244
G1 X108.356 Y110.888 E2.92275
G1 X108.543 Y110.423 E2.93275
G1 X108.695 Y109.947 E2.94273
G1 X108.807 Y109.485 E2.95221
G1 X108.916 Y108.854 E2.96499
G1 X108.959 Y108.223 E2.97761
G1 X108.958 Y107.748 E2.98709
G1 X108.919 Y107.227 E2.99752
G1 X108.85 Y106.732 E3.00749
G1 X108.749 Y106.258 E3.01716
G1 X108.605 Y105.765 E3.02741
G1 X108.434 Y105.297 E3.03736
G1 X108.24 Y104.861 E3.04688
G1 X107.993 Y104.4 E3.05732
G1 X107.656 Y103.862 E3.06999
G1 X107.257 Y103.355 E3.08286
G1 X106.922 Y102.985 E3.09282
G1 X106.574 Y102.653 E3.10242
G1 X106.375 Y102.48 E3.10768
G1 X105.995 Y102.185 E3.11728
G1 X105.464 Y101.828 E3.13005
G1 X104.919 Y101.541 E3.14234
G1 X104.448 Y101.331 E3.15263
G1 X104.001 Y101.169 E3.16212
G1 X103.498 Y101.026 E3.17256
G1 X103.021 Y100.924 E3.18229
G1 X102.536 Y100.858 E3.19206
G1 X102.015 Y100.821 E3.20248
G1 X101.536 Y100.821 E3.21204
G1 X101.272 Y100.836 E3.21732
G1 X100.803 Y100.884 E3.22673
G1 X100.461 Y100.939 E3.23364
G1 X100.012 Y101.036 E3.24281
G1 X99.548 Y101.171 E3.25245
G1 X99.07 Y101.347 E3.26262
G1 X98.611 Y101.552 E3.27265
G1 X98.172 Y101.787 E3.28258
G1 X97.65 Y102.113 E3.29487
G1 X97.142 Y102.511 E3.30774
G1 X96.788 Y102.832 E3.31728
G1 X96.425 Y103.207 E3.3277
G1 X96.113 Y103.581 E3.33742
G1 X95.733 Y104.11 E3.35041
G1 X95.426 Y104.643 E3.36269
G1 X95.199 Y105.115 E3.37314
G1 X95.012 Y105.58 E3.38314
G1 X94.86 Y106.056 E3.39311
G1 X94.748 Y106.519 E3.40262
G1 X94.659 Y107.033 E3.41303
G1 X94.609 Y107.512 E3.42264
G1 X94.596 Y107.776 E3.42792
G1 X94.597 Y108.255 E3.43748
G1 X94.636 Y108.777 E3.44792
G1 X94.701 Y109.25 E3.45745
G1 X94.807 Y109.745 E3.46755
G1 X94.95 Y110.238 E3.4778
G1 X95.113 Y110.688 E3.48735
G1 X95.325 Y111.165 E3.49776
G1 X95.55 Y111.583 E3.50724
G1 X95.843 Y112.053 E3.51829
G1 X96.124 Y112.438 E3.5278
G1 X96.446 Y112.82 E3.53777
G1 X96.794 Y113.178 E3.54773
G1 X97.184 Y113.527 E3.55818
G1 X97.56 Y113.818 E3.56767
G1 X97.987 Y114.105 E3.57793
G1 X98.423 Y114.356 E3.58797
G1 X98.857 Y114.566 E3.5976
G1 X99.33 Y114.757 E3.60778
G1 X99.814 Y114.915 E3.61794
G1 X100.294 Y115.032 E3.6278
G1 X100.774 Y115.116 E3.63752
G1 X101.269 Y115.169 E3.64745
G1 X101.533 Y115.183 E3.65273
G1 X102.021 Y115.182 E3.66247
G1 X102.283 Y115.168 E3.6677
G1 X102.8 Y115.113 E3.67808
G1 F2700 E-1.32192
G0 F6000 X102.699 Y114.421
G0 X101.397 Y114.176
G0 X101.443 Y112.867
G0 X101.398 Y112.579
G0 X101.495 Y111.887
G1 F2700 E3.67808
G1 F1200 X101.05 Y111.824 E3.68705
G1 X100.654 Y111.726 E3.69519
G1 X100.304 Y111.601 E3.70261
G1 X99.881 Y111.406 E3.7119
G1 X99.404 Y111.091 E3.72331
G1 X98.974 Y110.71 E3.73477
G1 X98.608 Y110.267 E3.74624
G1 X98.361 Y109.866 E3.75564
G1 X98.194 Y109.518 E3.76334
G1 X98.031 Y109.079 E3.77269
G1 X97.936 Y108.611 E3.78222
G1 X97.895 Y108.257 E3.78933
G1 X97.888 Y107.775 E3.79895
G1 X97.949 Y107.301 E3.80849
G1 X98.037 Y106.929 E3.81612
G1 X98.163 Y106.557 E3.82395
G1 X98.321 Y106.214 E3.83149
G1 X98.5 Y105.905 E3.83862
G1 X98.709 Y105.609 E3.84585
G1 X98.979 Y105.299 E3.85405
G1 X99.245 Y105.047 E3.86136
G1 X99.554 Y104.808 E3.86916
G1 X99.872 Y104.609 E3.87665
G1 X100.221 Y104.436 E3.88442
G1 X100.556 Y104.308 E3.89158
G1 X100.926 Y104.206 E3.89923
G1 X101.301 Y104.14 E3.90683
G1 X101.681 Y104.113 E3.91444
G1 X102.061 Y104.122 E3.92202
G1 X102.434 Y104.166 E3.92952
G1 X102.89 Y104.266 E3.93883
G1 X103.414 Y104.465 E3.95002
G1 X103.835 Y104.699 E3.95963
G1 X104.151 Y104.916 E3.96728
G1 X104.446 Y105.17 E3.97505
G1 X104.695 Y105.427 E3.98219
G1 X105.009 Y105.824 E3.99229
G1 X105.287 Y106.311 E4.00348
G1 X105.493 Y106.823 E4.0145
G1 X105.601 Y107.287 E4.024
G1 X105.655 Y107.666 E4.03164
G1 X105.668 Y108.045 E4.03921
G1 X105.638 Y108.524 E4.04879
G1 X105.522 Y109.077 E4.06006
G1 X105.36 Y109.518 E4.06944
G1 X105.194 Y109.861 E4.07704
G1 X104.955 Y110.259 E4.08631
G1 X104.59 Y110.701 E4.09775
G1 X104.222 Y111.026 E4.10755
G1 X103.942 Y111.234 E4.11451
G1 X103.545 Y111.475 E4.12377
G1 X103.082 Y111.667 E4.13378
G1 X102.714 Y111.777 E4.14144
G1 X102.332 Y111.852 E4.14921
G1 X101.965 Y111.888 E4.15657
G1 X101.495 Y111.887 E4.16595
G1 F2700 E-0.83405
G0 F6000 X101.398 Y112.579
G0 X102.504 Y112.819
G0 X102.644 Y114.124
G0 X102.749 Y113.952
;TYPE:SKIN
G1 F2700 E4.16595
G1 F1200 X102.095 Y114.021 E4.17907
G1 X101.406 Y114.016 E4.19282
G1 X100.963 Y113.968 E4.20171
G1 X100.524 Y113.891 E4.21061
G1 X100.151 Y113.803 E4.21826
G1 X99.743 Y113.671 E4.22681
G1 X99.346 Y113.512 E4.23535
G1 X98.995 Y113.344 E4.24311
G1 X98.619 Y113.129 E4.25176
G1 X98.271 Y112.897 E4.2601
G1 X97.923 Y112.632 E4.26883
G1 X97.617 Y112.358 E4.27703
G1 X97.3 Y112.031 E4.28612
G1 X97.047 Y111.733 E4.29392
G1 X96.807 Y111.403 E4.30206
G1 X96.559 Y111.01 E4.31134
G1 X96.384 Y110.686 E4.31869
G1 X96.192 Y110.257 E4.32807
G1 X96.062 Y109.903 E4.33559
G1 X95.929 Y109.447 E4.34507
G1 X95.845 Y109.055 E4.35307
G1 X95.786 Y108.638 E4.36147
G1 X95.759 Y108.249 E4.36926
G1 X95.756 Y107.85 E4.37722
G1 X95.772 Y107.542 E4.38337
G1 X95.809 Y107.181 E4.39062
G1 X95.882 Y106.779 E4.39877
G1 X95.979 Y106.368 E4.4072
G1 X96.1 Y105.985 E4.41521
G1 X96.25 Y105.612 E4.42324
G1 X96.448 Y105.197 E4.43241
G1 X96.716 Y104.733 E4.4431
G1 X97.03 Y104.294 E4.45388
G1 X97.281 Y103.992 E4.46171
G1 X97.604 Y103.659 E4.47097
G1 X97.882 Y103.406 E4.47847
G1 X98.319 Y103.062 E4.48957
G1 X98.732 Y102.805 E4.49928
G1 X99.132 Y102.59 E4.50834
G1 X99.471 Y102.438 E4.51575
G1 X99.923 Y102.27 E4.52538
G1 X100.284 Y102.164 E4.53289
G1 X100.899 Y102.04 E4.54541
G1 X101.487 Y101.981 E4.5572
G1 X101.961 Y101.982 E4.56666
G1 X102.425 Y102.014 E4.57594
G1 X102.821 Y102.068 E4.58391
G1 X103.198 Y102.148 E4.59161
G1 X103.654 Y102.279 E4.60107
G1 X104.002 Y102.406 E4.60847
G1 X104.419 Y102.59 E4.61756
G1 X104.87 Y102.826 E4.62772
G1 X105.311 Y103.125 E4.63835
G1 X105.788 Y103.508 E4.65056
G1 X106.098 Y103.805 E4.65913
G1 X106.362 Y104.095 E4.66695
G1 X106.704 Y104.53 E4.678
G1 X106.986 Y104.98 E4.68859
G1 X107.174 Y105.328 E4.69649
G1 X107.364 Y105.75 E4.70572
G1 X107.501 Y106.123 E4.71365
G1 X107.625 Y106.541 E4.72235
G1 X107.703 Y106.907 E4.72982
G1 X107.758 Y107.303 E4.7378
G1 X107.798 Y107.81 E4.74795
G1 X107.799 Y108.174 E4.75521
G1 X107.762 Y108.719 E4.76612
G1 X107.688 Y109.176 E4.77535
G1 X107.582 Y109.61 E4.78427
G1 X107.452 Y110.026 E4.79297
