;FLAVOR:Marlin
;TIME:11901
;Filament used: 7.7902m
;Layer height: 0.2
;MINX:68.7
;MINY:57.253
;MINZ:0.2
;MAXX:167.165
;MAXY:177.352
;MAXZ:13
;Generated with Cura_SteamEngine 5.2.1
M140 S50
M105
M190 S50
M104 S200
M105
M109 S200
M82 ;absolute extrusion mode
; Ender 3 Custom Start G-code
G92 E0 ; Reset Extruder
G28 ; Home all axes
G1 Z2.0 F3000 ; Move Z Axis up little to prevent scratching of Heat Bed
G1 X0.1 Y20 Z0.3 F5000.0 ; Move to start position
G1 X0.1 Y200.0 Z0.3 F1500.0 E15 ; Draw the first line
G1 X0.4 Y200.0 Z0.3 F5000.0 ; Move to side a little
G1 X0.4 Y20 Z0.3 F1500.0 E30 ; Draw the second line
G92 E0 ; Reset Extruder
G1 Z2.0 F3000 ; Move Z Axis up little to prevent scratching of Heat Bed
G1 X5 Y20 Z0.3 F5000.0 ; Move over to prevent blob squish
G92 E0
G92 E0
G1 F2700 E-5
;LAYER_COUNT:65
;LAYER:0
M107
;MESH:Floor.stl
G0 F6000 X78.883 Y82.298 Z0.2
;TYPE:WALL-INNER
G1 F2700 E0
G1 F1200 X78.294 Y82.417 E0.01999
G1 X77.77 Y82.451 E0.03745
G1 X77.204 Y82.415 E0.05631
G1 X76.615 Y82.296 E0.0763
G1 X76.082 Y82.1 E0.09519
G1 X75.575 Y81.837 E0.11419
G1 X75.175 Y81.559 E0.13039
G1 X74.747 Y81.171 E0.1496
G1 X74.383 Y80.73 E0.16862
G1 X74.076 Y80.239 E0.18788
G1 X73.843 Y79.711 E0.20708
G1 X73.682 Y79.126 E0.22726
G1 X73.608 Y78.597 E0.24502
G1 X73.609 Y78.011 E0.26451
G1 X73.688 Y77.441 E0.28365
G1 X73.846 Y76.889 E0.30275
G1 X74.074 Y76.372 E0.32154
G1 X74.322 Y75.962 E0.33748
G1 X74.679 Y75.509 E0.35666
G1 X75.091 Y75.117 E0.37558
G1 X75.565 Y74.771 E0.3951
G1 X76.079 Y74.502 E0.41439
G1 X76.609 Y74.308 E0.43316
G1 X77.141 Y74.196 E0.45125
G1 X77.747 Y74.15 E0.47146
G1 X78.323 Y74.19 E0.49066
G1 X78.898 Y74.31 E0.5102
G1 X79.406 Y74.499 E0.52823
G1 X79.924 Y74.766 E0.54761
G1 X80.329 Y75.048 E0.56402
G1 X80.747 Y75.426 E0.58277
G1 X81.119 Y75.877 E0.60221
G1 X81.421 Y76.36 E0.62116
G1 X81.654 Y76.884 E0.64023
G1 X81.813 Y77.44 E0.65947
G1 X81.894 Y78.019 E0.67891
G1 X81.889 Y78.595 E0.69807
G1 X81.813 Y79.146 E0.71657
G1 X81.659 Y79.691 E0.73541
G1 X81.432 Y80.214 E0.75437
G1 X81.181 Y80.639 E0.77079
G1 X80.821 Y81.095 E0.79011
G1 X80.41 Y81.489 E0.80905
G1 X79.943 Y81.825 E0.82818
G1 X79.442 Y82.089 E0.84702
G1 X79.134 Y82.206 E0.85798
G1 X78.883 Y82.298 E0.86687
G0 F6000 X78.799 Y81.903
G1 F1200 X78.251 Y82.019 E0.8855
G1 X77.763 Y82.051 E0.90176
G1 X77.248 Y82.018 E0.91893
G1 X76.761 Y81.918 E0.93546
G1 X76.284 Y81.749 E0.95229
G1 X75.814 Y81.51 E0.96983
G1 X75.394 Y81.218 E0.98684
G1 X75.071 Y80.925 E1.00135
G1 X74.734 Y80.527 E1.01869
G1 X74.414 Y80.014 E1.0388
G1 X74.238 Y79.615 E1.05331
G1 X74.076 Y79.057 E1.07263
G1 X74.007 Y78.566 E1.08913
G1 X74.014 Y78.002 E1.10789
G1 X74.08 Y77.526 E1.12387
G1 X74.239 Y76.989 E1.1425
G1 X74.415 Y76.59 E1.157
G1 X74.634 Y76.219 E1.17133
G1 X74.972 Y75.782 E1.1897
G1 X75.318 Y75.45 E1.20565
G1 X75.751 Y75.13 E1.22356
G1 X76.283 Y74.853 E1.24351
G1 X76.72 Y74.693 E1.25899
G1 X77.21 Y74.59 E1.27564
G1 X77.752 Y74.551 E1.29372
G1 X78.309 Y74.595 E1.3123
G1 X78.781 Y74.694 E1.32834
G1 X79.272 Y74.878 E1.34578
G1 X79.752 Y75.134 E1.36387
G1 X80.105 Y75.385 E1.37828
G1 X80.478 Y75.728 E1.39513
G1 X80.766 Y76.077 E1.41018
G1 X81.046 Y76.514 E1.42745
G1 X81.26 Y76.984 E1.44462
G1 X81.422 Y77.527 E1.46347
G1 X81.493 Y78.083 E1.48211
G1 X81.49 Y78.565 E1.49814
G1 X81.42 Y79.069 E1.51507
G1 X81.28 Y79.563 E1.53215
G1 X81.074 Y80.037 E1.54934
G1 X80.847 Y80.415 E1.564
G1 X80.524 Y80.823 E1.58131
G1 X80.183 Y81.153 E1.59709
G1 X79.746 Y81.476 E1.61517
G1 X79.241 Y81.741 E1.63413
G1 X78.996 Y81.831 E1.64281
G1 X78.799 Y81.903 E1.64979
G0 F6000 X78.677 Y81.522
;TYPE:WALL-OUTER
G1 F1200 X78.2 Y81.622 E1.666
G1 X77.737 Y81.651 E1.68143
G1 X77.273 Y81.617 E1.6969
G1 X76.844 Y81.526 E1.71149
G1 X76.398 Y81.363 E1.72728
G1 X75.976 Y81.142 E1.74313
G1 X75.663 Y80.922 E1.75585
G1 X75.32 Y80.608 E1.77132
G1 X75.042 Y80.272 E1.78582
G1 X74.78 Y79.852 E1.80229
G1 X74.595 Y79.428 E1.81767
G1 X74.469 Y78.981 E1.83312
G1 X74.409 Y78.551 E1.84756
G1 X74.41 Y78.057 E1.86399
G1 X74.476 Y77.595 E1.87951
G1 X74.605 Y77.151 E1.89489
G1 X74.793 Y76.729 E1.91026
G1 X74.976 Y76.426 E1.92203
G1 X75.28 Y76.041 E1.93835
G1 X75.605 Y75.73 E1.95331
G1 X75.977 Y75.46 E1.9686
G1 X76.397 Y75.239 E1.98438
G1 X76.843 Y75.076 E2.00018
G1 X77.279 Y74.984 E2.015
G1 X77.763 Y74.953 E2.03113
G1 X78.199 Y74.983 E2.04566
G1 X78.656 Y75.077 E2.06118
G1 X79.102 Y75.24 E2.07698
G1 X79.524 Y75.462 E2.09283
G1 X79.837 Y75.682 E2.10556
G1 X80.178 Y75.993 E2.12091
G1 X80.473 Y76.353 E2.13639
G1 X80.713 Y76.739 E2.15151
G1 X80.904 Y77.172 E2.16725
G1 X81.031 Y77.622 E2.1828
G1 X81.093 Y78.082 E2.19824
G1 X81.09 Y78.547 E2.2137
G1 X81.028 Y78.992 E2.22865
G1 X80.895 Y79.452 E2.24457
G1 X80.715 Y79.86 E2.25941
G1 X80.517 Y80.188 E2.27215
G1 X80.22 Y80.562 E2.28803
G1 X79.895 Y80.874 E2.30302
G1 X79.517 Y81.148 E2.31855
G1 X79.097 Y81.367 E2.3343
G1 X78.858 Y81.455 E2.34277
G1 X78.677 Y81.522 E2.34919
G1 F2700 E-2.65081
G0 F6000 X78.915 Y82.18
G0 X79.197 Y82.376
G0 X86.836 Y88.004
G0 X87.607 Y90.402
G0 X88.231 Y91.466
G0 X89.068 Y92.338
G0 X113.922 Y112.664
G0 X114.904 Y113.142
G0 X116.826 Y113.65
;TYPE:WALL-INNER
G1 F2700 E2.34919
G1 F1200 X116.179 Y113.622 E2.37073
G1 X115.571 Y113.522 E2.39122
G1 X114.951 Y113.344 E2.41268
G1 X114.418 Y113.123 E2.43187
G1 X113.834 Y112.8 E2.45407
G1 X113.325 Y112.429 E2.47501
G1 X88.984 Y92.477 E3.52182
G1 X88.512 Y92.045 E3.5431
G1 X88.104 Y91.568 E3.56398
G1 X87.755 Y91.043 E3.58495
G1 X87.469 Y90.485 E3.6058
G1 X87.247 Y89.895 E3.62677
G1 X87.094 Y89.269 E3.6482
G1 X87.019 Y88.646 E3.66907
G1 X87.016 Y88.009 E3.69026
G1 X87.071 Y87.478 E3.70801
G1 X87.2 Y86.871 E3.72865
G1 X87.419 Y86.235 E3.75103
G1 X87.697 Y85.66 E3.77227
G1 X88.038 Y85.131 E3.7932
G1 X88.425 Y84.655 E3.81361
G1 X88.884 Y84.21 E3.83487
G1 X89.401 Y83.815 E3.85651
G1 X89.949 Y83.491 E3.87768
G1 X90.535 Y83.235 E3.89895
G1 X91.082 Y83.067 E3.91799
G1 X91.204 Y83.037 E3.92216
G1 X91.772 Y82.938 E3.94134
G1 X92.348 Y82.903 E3.96053
G1 X141.155 Y82.904 E5.58386
G1 X141.727 Y82.938 E5.60292
G1 X142.352 Y83.048 E5.62403
G1 X142.964 Y83.236 E5.64532
G1 X143.548 Y83.491 E5.66652
G1 X144.099 Y83.817 E5.68781
G1 X144.615 Y84.211 E5.7094
G1 X144.962 Y84.535 E5.72519
G1 X145.384 Y85.025 E5.7467
G1 X145.754 Y85.575 E5.76875
G1 X146.056 Y86.18 E5.79124
G1 X146.261 Y86.721 E5.81048
G1 X146.407 Y87.334 E5.83144
G1 X146.482 Y87.956 E5.85228
G1 X146.484 Y88.609 E5.874
G1 X146.414 Y89.216 E5.89432
G1 X146.253 Y89.899 E5.91766
G1 X146.04 Y90.467 E5.93783
G1 X145.751 Y91.036 E5.95906
G1 X145.407 Y91.552 E5.97969
G1 X144.985 Y92.047 E6.00132
G1 X144.513 Y92.483 E6.02269
G1 X143.958 Y92.934 E6.04648
G1 X143.569 Y93.209 E6.06232
G1 X143.147 Y93.426 E6.07811
G1 X142.773 Y93.564 E6.09137
G1 X142.296 Y93.67 E6.10762
G1 X141.881 Y93.7 E6.12146
G1 X131.596 Y93.702 E6.46354
G1 X131.344 Y93.742 E6.47202
G1 X131.169 Y93.844 E6.47876
G1 X131.033 Y94.005 E6.48577
G1 X130.951 Y94.231 E6.49377
G1 X130.947 Y102.06 E6.75416
G1 X130.917 Y102.456 E6.76737
G1 X130.804 Y102.979 E6.78517
G1 X130.624 Y103.446 E6.80181
G1 X130.38 Y103.875 E6.81823
G1 X130.073 Y104.267 E6.83479
G1 X129.738 Y104.589 E6.85024
G1 X120.171 Y112.428 E7.26162
G1 X119.657 Y112.804 E7.2828
G1 X119.08 Y113.122 E7.30471
G1 X118.539 Y113.348 E7.32421
G1 X117.927 Y113.521 E7.34536
G1 X117.319 Y113.62 E7.36585
G1 X116.826 Y113.65 E7.38228
G0 F6000 X115.607 Y113.426
G0 X115.656 Y113.131
G1 F1200 X115.087 Y112.967 E7.40198
G1 X114.579 Y112.757 E7.42026
G1 X114.024 Y112.443 E7.44147
G1 X113.579 Y112.12 E7.45976
G1 X89.238 Y92.168 E8.50656
G1 X88.78 Y91.743 E8.52734
G1 X88.4 Y91.292 E8.54696
G1 X88.113 Y90.862 E8.56415
G1 X87.832 Y90.316 E8.58458
G1 X87.627 Y89.77 E8.60397
G1 X87.486 Y89.186 E8.62396
G1 X87.418 Y88.612 E8.64318
G1 X87.416 Y88.021 E8.66284
G1 X87.467 Y87.536 E8.67906
G1 X87.588 Y86.968 E8.69837
G1 X87.787 Y86.392 E8.71864
G1 X88.044 Y85.86 E8.73829
G1 X88.38 Y85.341 E8.75886
G1 X88.723 Y84.921 E8.77689
G1 X89.148 Y84.51 E8.79656
G1 X89.625 Y84.147 E8.81649
G1 X90.166 Y83.832 E8.83732
G1 X90.706 Y83.601 E8.85685
G1 X91.2 Y83.449 E8.87404
G1 X91.787 Y83.341 E8.89389
G1 X92.372 Y83.303 E8.91339
G1 X141.131 Y83.304 E10.53512
G1 X141.712 Y83.342 E10.55449
G1 X142.226 Y83.432 E10.57184
G1 X142.856 Y83.625 E10.59376
G1 X143.396 Y83.865 E10.61341
G1 X143.875 Y84.148 E10.63192
G1 X144.351 Y84.511 E10.65183
G1 X144.68 Y84.819 E10.66682
G1 X145.069 Y85.272 E10.68668
G1 X145.406 Y85.773 E10.70676
G1 X145.682 Y86.322 E10.7272
G1 X145.864 Y86.802 E10.74427
G1 X146.015 Y87.415 E10.76527
G1 X146.084 Y87.988 E10.78446
G1 X146.085 Y88.589 E10.80445
G1 X146.015 Y89.174 E10.82405
G1 X145.866 Y89.794 E10.84526
G1 X145.674 Y90.306 E10.86344
G1 X145.388 Y90.863 E10.88427
G1 X145.101 Y91.293 E10.90146
G1 X144.697 Y91.77 E10.92226
G1 X144.261 Y92.172 E10.94198
G1 X143.706 Y92.623 E10.96577
G1 X143.362 Y92.867 E10.97979
G1 X143.017 Y93.045 E10.9927
G1 X142.664 Y93.181 E11.00529
G1 X142.238 Y93.271 E11.01977
G1 X141.852 Y93.301 E11.03265
G1 X131.426 Y93.302 E11.37942
G1 X131.051 Y93.438 E11.39268
G1 X130.785 Y93.663 E11.40427
G1 X130.611 Y93.962 E11.41578
G1 X130.551 Y94.33 E11.42818
G1 X130.548 Y102.03 E11.68428
G1 X130.519 Y102.426 E11.69749
G1 X130.421 Y102.863 E11.71238
G1 X130.277 Y103.234 E11.72562
G1 X130.044 Y103.656 E11.74165
G1 X129.752 Y104.021 E11.7572
G1 X129.453 Y104.307 E11.77096
G1 X119.891 Y112.14 E12.18208
G1 X119.416 Y112.48 E12.20151
G1 X118.919 Y112.756 E12.22042
G1 X118.44 Y112.956 E12.23768
G1 X117.813 Y113.136 E12.25938
G1 X117.275 Y113.223 E12.27751
G1 X116.816 Y113.25 E12.2928
G1 X116.254 Y113.227 E12.31151
G1 X115.656 Y113.131 E12.33165
G0 F6000 X115.607 Y113.426
G0 X116.852 Y113.549
G0 X116.812 Y112.85
;TYPE:WALL-OUTER
G1 F1200 X116.258 Y112.825 E12.3501
G1 X115.728 Y112.737 E12.36796
G1 X115.222 Y112.591 E12.38548
G1 X114.741 Y112.391 E12.40281
G1 X114.258 Y112.119 E12.42124
G1 X113.842 Y111.818 E12.43832
G1 X89.483 Y91.851 E13.48591
G1 X89.084 Y91.483 E13.50396
G1 X88.747 Y91.089 E13.5212
G1 X88.434 Y90.619 E13.53999
G1 X88.195 Y90.148 E13.55755
G1 X88.007 Y89.646 E13.57538
G1 X87.877 Y89.103 E13.59395
G1 X87.816 Y88.578 E13.61153
G1 X87.817 Y88.017 E13.63019
G1 X87.865 Y87.58 E13.64481
G1 X87.978 Y87.059 E13.66254
G1 X88.155 Y86.548 E13.68053
G1 X88.396 Y86.05 E13.69893
G1 X88.69 Y85.594 E13.71698
G1 X89.022 Y85.187 E13.73445
G1 X89.412 Y84.81 E13.75249
G1 X89.859 Y84.472 E13.77113
G1 X90.304 Y84.21 E13.7883
G1 X90.824 Y83.983 E13.80717
G1 X91.318 Y83.831 E13.82436
G1 X91.856 Y83.735 E13.84254
G1 X92.408 Y83.702 E13.86093
G1 X141.107 Y83.703 E15.48067
G1 X141.643 Y83.736 E15.49853
G1 X142.157 Y83.826 E15.51589
G1 X142.675 Y83.984 E15.5339
G1 X143.193 Y84.21 E15.5527
G1 X143.66 Y84.486 E15.57074
G1 X144.091 Y84.815 E15.58877
G1 X144.399 Y85.103 E15.6028
G1 X144.764 Y85.531 E15.62151
G1 X145.063 Y85.98 E15.63945
G1 X145.308 Y86.464 E15.65749
G1 X145.49 Y86.944 E15.67456
G1 X145.626 Y87.514 E15.69405
G1 X145.685 Y88.021 E15.71103
G1 X145.684 Y88.582 E15.72969
G1 X145.62 Y89.108 E15.74731
G1 X145.491 Y89.654 E15.76597
G1 X145.308 Y90.145 E15.7834
G1 X145.055 Y90.641 E15.80192
G1 X144.763 Y91.078 E15.8194
G1 X144.409 Y91.492 E15.83752
G1 X144.009 Y91.862 E15.85564
G1 X143.443 Y92.321 E15.87988
G1 X143.154 Y92.525 E15.89165
G1 X142.824 Y92.694 E15.90398
G1 X142.548 Y92.796 E15.91376
G1 X142.167 Y92.877 E15.92672
G1 X141.823 Y92.902 E15.93819
G1 X131.56 Y92.902 E16.27954
G1 X131.154 Y92.938 E16.2931
G1 X130.653 Y93.229 E16.31237
G1 X130.477 Y93.405 E16.32064
G1 X130.233 Y93.825 E16.3368
G1 X130.172 Y94.059 E16.34484
G1 X130.151 Y94.312 E16.35329
G1 X130.149 Y102.001 E16.60902
G1 X130.122 Y102.364 E16.62113
G1 X130.033 Y102.763 E16.63473
G1 X129.905 Y103.088 E16.64635
G1 X129.703 Y103.442 E16.6599
G1 X129.485 Y103.72 E16.67165
G1 X129.206 Y103.992 E16.68461
G1 X119.655 Y111.816 E17.09526
G1 X119.22 Y112.131 E17.11312
G1 X118.758 Y112.39 E17.13074
G1 X118.265 Y112.594 E17.14848
G1 X117.748 Y112.741 E17.16636
G1 X117.22 Y112.826 E17.18415
G1 X116.812 Y112.85 E17.19774
G1 F2700 E12.19774
G0 F6000 X116.852 Y113.549
G0 X118.536 Y113.536
G0 X122.302 Y116.345
G0 X122.673 Y118.413
G0 X123.045 Y119.517
G0 X123.656 Y120.516
G0 X124.302 Y121.181
G0 X149.373 Y141.785
;TYPE:WALL-INNER
G1 F2700 E17.19774
G1 F1200 X148.842 Y141.485 E17.21803
G1 X148.325 Y141.112 E17.23923
G1 X124.329 Y121.442 E18.27122
G1 X123.925 Y121.072 E18.28944
G1 X123.526 Y120.615 E18.30961
G1 X123.159 Y120.071 E18.33144
G1 X122.896 Y119.584 E18.34985
G1 X122.662 Y118.976 E18.37152
G1 X122.524 Y118.478 E18.3887
G1 X122.441 Y118.002 E18.40478
G1 X122.394 Y117.379 E18.42556
G1 X122.424 Y116.733 E18.44706
G1 X122.523 Y116.122 E18.46765
G1 X122.659 Y115.629 E18.48466
G1 X122.893 Y115.023 E18.50627
G1 X123.159 Y114.531 E18.52487
G1 X123.523 Y113.99 E18.54656
G1 X123.963 Y113.494 E18.56861
G1 X124.371 Y113.122 E18.58697
G1 X125.834 Y111.93 E18.64974
G1 X126.2 Y111.672 E18.66463
G1 X126.677 Y111.441 E18.68226
G1 X127.173 Y111.287 E18.69953
G1 X127.681 Y111.211 E18.71662
G1 X128.208 Y111.213 E18.73415
G1 X128.645 Y111.276 E18.74883
G1 X129.138 Y111.423 E18.76594
G1 X129.608 Y111.641 E18.78317
G1 X130.025 Y111.924 E18.79994
G1 X130.419 Y112.28 E18.8176
G1 X130.754 Y112.704 E18.83557
G1 X131.059 Y113.238 E18.85602
G1 X131.192 Y113.38 E18.8625
G1 X131.44 Y113.502 E18.87169
G1 X153.831 Y113.506 E19.61642
G1 X154.291 Y113.546 E19.63177
G1 X154.813 Y113.673 E19.64964
G1 X155.315 Y113.884 E19.66775
G1 X155.776 Y114.169 E19.68578
G1 X156.128 Y114.472 E19.70123
G1 X156.476 Y114.869 E19.71879
G1 X156.768 Y115.334 E19.73705
G1 X156.983 Y115.841 E19.75537
G1 X157.109 Y116.354 E19.77293
G1 X157.148 Y116.821 E19.78852
G1 X157.15 Y136.936 E20.45755
G1 X157.119 Y137.492 E20.47607
G1 X157.022 Y138.101 E20.49658
G1 X156.854 Y138.692 E20.51702
G1 X156.6 Y139.314 E20.53936
G1 X156.266 Y139.893 E20.56159
G1 X155.973 Y140.299 E20.57825
G1 X155.562 Y140.758 E20.59874
G1 X155.148 Y141.135 E20.61736
G1 X154.621 Y141.506 E20.6388
G1 X154.131 Y141.781 E20.65749
G1 X153.554 Y142.025 E20.67832
G1 X152.937 Y142.203 E20.69968
G1 X152.362 Y142.301 E20.71908
G1 X151.733 Y142.337 E20.74004
G1 X151.149 Y142.302 E20.7595
G1 X150.543 Y142.199 E20.77994
G1 X149.954 Y142.028 E20.80034
G1 X149.373 Y141.785 E20.82129
G0 F6000 X149.544 Y141.423
G1 F1200 X149.052 Y141.145 E20.84008
G1 X148.579 Y140.803 E20.8595
G1 X124.624 Y121.168 E21.88969
G1 X124.189 Y120.766 E21.90939
G1 X123.823 Y120.341 E21.92804
G1 X123.545 Y119.937 E21.94435
G1 X123.277 Y119.447 E21.96293
G1 X123.047 Y118.869 E21.98362
G1 X122.912 Y118.38 E22.00049
G1 X122.829 Y117.879 E22.01738
G1 X122.794 Y117.368 E22.03442
G1 X122.821 Y116.783 E22.0539
G1 X122.914 Y116.21 E22.0732
G1 X123.045 Y115.735 E22.08959
G1 X123.247 Y115.218 E22.10805
G1 X123.544 Y114.667 E22.12887
G1 X123.864 Y114.207 E22.14751
G1 X124.188 Y113.836 E22.16389
G1 X124.597 Y113.455 E22.18249
G1 X126.064 Y112.257 E22.24548
G1 X126.407 Y112.016 E22.25942
G1 X126.823 Y111.815 E22.27479
G1 X127.258 Y111.679 E22.28995
G1 X127.716 Y111.61 E22.30535
G1 X128.212 Y111.618 E22.32185
G1 X128.556 Y111.667 E22.33341
G1 X129.033 Y111.816 E22.35003
G1 X129.412 Y111.992 E22.36393
G1 X129.783 Y112.243 E22.37883
G1 X130.128 Y112.557 E22.39434
G1 X130.418 Y112.924 E22.4099
G1 X130.727 Y113.465 E22.43062
G1 X130.993 Y113.747 E22.44352
G1 X131.317 Y113.882 E22.45519
G1 X131.575 Y113.902 E22.4638
G1 X153.799 Y113.904 E23.20297
G1 X154.228 Y113.941 E23.21729
G1 X154.688 Y114.053 E23.23304
G1 X155.131 Y114.239 E23.24902
G1 X155.54 Y114.493 E23.26503
G1 X155.82 Y114.731 E23.27725
G1 X156.156 Y115.109 E23.29408
G1 X156.413 Y115.518 E23.31014
G1 X156.586 Y115.927 E23.32491
G1 X156.714 Y116.418 E23.34179
G1 X156.749 Y116.853 E23.3563
G1 X156.749 Y136.971 E24.02543
G1 X156.72 Y137.468 E24.04199
G1 X156.628 Y138.032 E24.061
G1 X156.47 Y138.579 E24.07993
G1 X156.224 Y139.166 E24.1011
G1 X155.977 Y139.603 E24.1178
G1 X155.648 Y140.065 E24.13666
G1 X155.267 Y140.488 E24.1556
G1 X154.869 Y140.842 E24.17331
G1 X154.417 Y141.162 E24.19173
G1 X153.949 Y141.425 E24.20959
G1 X153.418 Y141.649 E24.22876
G1 X152.855 Y141.811 E24.24824
G1 X152.311 Y141.904 E24.2666
