;FLAVOR:Marlin
;TIME:82
;Filament used: 0.0407832m
;Layer height: 0.2
;MINX:105.721
;MINY:105.717
;MINZ:0.2
;MAXX:128.361
;MAXY:129.285
;MAXZ:1
;Generated with Cura_SteamEngine 5.2.1
M140 S50
M105
M190 S50
M104 S200
M105
M109 S200
M82 ;absolute extrusion mode
; Ender 3 Custom Start G-code
G92 E0 ; Reset Extruder
G28 ; Home all axes
G1 Z2.0 F3000 ; Move Z Axis up little to prevent scratching of Heat Bed
G1 X0.1 Y20 Z0.3 F5000.0 ; Move to start position
G1 X0.1 Y200.0 Z0.3 F1500.0 E15 ; Draw the first line
G1 X0.4 Y200.0 Z0.3 F5000.0 ; Move to side a little
G1 X0.4 Y20 Z0.3 F1500.0 E30 ; Draw the second line
G92 E0 ; Reset Extruder
G1 Z2.0 F3000 ; Move Z Axis up little to prevent scratching of Heat Bed
G1 X5 Y20 Z0.3 F5000.0 ; Move over to prevent blob squish
G92 E0
G92 E0
G1 F2700 E-5
;LAYER_COUNT:5
;LAYER:0
M107
;MESH:Spacer.stl(3)
G0 F6000 X108.705 Y120.289 Z0.2
;TYPE:WALL-OUTER
G1 F2700 E0
G1 F1206 X108.232 Y120.194 E0.01597
G1 F1200 X107.918 Y120.081 E0.02707
G1 X107.529 Y119.882 E0.0416
G1 F1203 X107.158 Y119.618 E0.05671
G1 F1200 X106.863 Y119.309 E0.07091
G1 X106.667 Y119.046 E0.08182
G1 F1206 X106.509 Y118.777 E0.09215
G1 X106.376 Y118.477 E0.10301
G1 X106.282 Y118.174 E0.11351
G1 F1203 X106.202 Y117.735 E0.12831
G1 F1200 X106.217 Y117.19 E0.14644
G1 F1209.1 X106.296 Y116.751 E0.16117
G1 F1212.1 X106.45 Y116.347 E0.17541
G1 F1206 X106.661 Y115.96 E0.18999
G1 F1203 X106.926 Y115.622 E0.20424
G1 F1206 X107.246 Y115.316 E0.2189
G1 F1203 X107.505 Y115.132 E0.22944
G1 F1194 X107.884 Y114.931 E0.24378
G1 F1203 X108.329 Y114.774 E0.25943
G1 F1212.1 X108.845 Y114.705 E0.27657
G1 F1209.1 X109.291 Y114.716 E0.2913
G1 F1200 X109.612 Y114.765 E0.3021
G1 F1206 X110.057 Y114.899 E0.31748
G1 F1209.1 X110.504 Y115.137 E0.3342
G1 F1212.1 X110.879 Y115.417 E0.34961
G1 F1221.4 X111.265 Y115.845 E0.36844
G1 F1215.2 X111.469 Y116.182 E0.38138
G1 F1212.1 X111.642 Y116.572 E0.39543
G1 X111.764 Y117.014 E0.41053
G1 F1209.1 X111.799 Y117.445 E0.4248
G1 F1200 X111.791 Y117.75 E0.43495
G1 X111.736 Y118.099 E0.4467
G1 F1215.2 X111.62 Y118.502 E0.46047
G1 F1221.4 X111.432 Y118.887 E0.47447
G1 X111.176 Y119.275 E0.48967
G1 F1215.2 X110.802 Y119.645 E0.50694
G1 F1209.1 X110.534 Y119.841 E0.5179
G1 F1206 X110.078 Y120.095 E0.53518
G1 F1212.1 X109.528 Y120.255 E0.55404
G1 F1209.1 X109.287 Y120.282 E0.56204
G1 F1203 X109.104 Y120.297 E0.56814
G1 F1212.1 X108.705 Y120.289 E0.58128
G0 F6000 X108.796 Y120.698
G1 F1182.3 X109.26 Y120.692 E0.59694
G1 F1194 X109.707 Y120.624 E0.61206
G1 F1197 X110.269 Y120.448 E0.63169
G1 F1194 X110.622 Y120.256 E0.64512
G1 X110.98 Y120.013 E0.65959
G1 X111.223 Y119.8 E0.67039
G1 F1200 X111.527 Y119.468 E0.68536
G1 F1203 X111.705 Y119.21 E0.69576
G1 F1197 X111.941 Y118.773 E0.71232
G1 F1191.1 X112.098 Y118.322 E0.72832
G1 F1185.2 X112.196 Y117.765 E0.74737
G1 F1188.1 X112.193 Y117.29 E0.76333
G1 F1203 X112.153 Y116.943 E0.77491
G1 F1206 X112.052 Y116.543 E0.78857
G1 F1194 X111.934 Y116.227 E0.79984
G1 F1203 X111.821 Y115.999 E0.80828
G1 F1194 X111.68 Y115.743 E0.81805
G1 F1185.2 X111.336 Y115.315 E0.83655
G1 F1194 X111.063 Y115.049 E0.84929
G1 F1197 X110.709 Y114.791 E0.86389
G1 F1194 X110.416 Y114.632 E0.87504
G1 F1203 X110.166 Y114.518 E0.88415
G1 X109.704 Y114.371 E0.90024
G1 F1200 X109.338 Y114.323 E0.91251
G1 F1194 X109.053 Y114.295 E0.92209
G1 X108.795 Y114.311 E0.93073
G1 F1200 X108.498 Y114.341 E0.94066
G1 F1203 X108.173 Y114.408 E0.95166
G1 F1200 X107.685 Y114.577 E0.96884
G1 F1188.1 X107.234 Y114.827 E0.98616
G1 F1197 X107.001 Y115.005 E0.99594
G1 F1194 X106.805 Y115.167 E1.00444
G1 F1185.2 X106.449 Y115.57 E1.02255
G1 X106.201 Y115.938 E1.03749
G1 F1191.1 X105.982 Y116.443 E1.05594
G1 F1206 X105.891 Y116.743 E1.06631
G1 F1203 X105.83 Y117.065 E1.07719
G1 F1194 X105.803 Y117.401 E1.08845
G1 X105.805 Y117.791 E1.10149
G1 F1191.1 X105.928 Y118.415 E1.1228
G1 F1188.1 X106.093 Y118.833 E1.1379
G1 F1197 X106.295 Y119.208 E1.1521
G1 X106.549 Y119.559 E1.16655
G1 F1194 X106.854 Y119.884 E1.18144
G1 F1191.1 X107.209 Y120.15 E1.19631
G1 F1188.1 X107.511 Y120.333 E1.20817
G1 F1191.1 X107.838 Y120.48 E1.22019
G1 X108.241 Y120.613 E1.23441
G1 F1179.4 X108.796 Y120.698 E1.25341
G1 F2700 E-3.74659
;MESH:Spacer.stl
G0 F6000 X108.838 Y121.566
G0 X116.536 Y121.459
G0 X117.205 Y120.289
;TYPE:WALL-OUTER
G1 F2700 E1.25341
G1 F1206 X116.732 Y120.194 E1.26937
G1 F1200 X116.418 Y120.081 E1.28047
G1 X116.029 Y119.882 E1.29501
G1 F1203 X115.658 Y119.618 E1.31011
G1 F1200 X115.363 Y119.309 E1.32432
G1 X115.167 Y119.046 E1.33523
G1 F1206 X115.009 Y118.777 E1.34556
G1 X114.876 Y118.477 E1.35642
G1 X114.782 Y118.174 E1.36691
G1 F1203 X114.702 Y117.735 E1.38172
G1 F1200 X114.717 Y117.19 E1.39985
G1 F1209.1 X114.796 Y116.751 E1.41458
G1 F1212.1 X114.95 Y116.347 E1.42881
G1 F1206 X115.161 Y115.96 E1.4434
G1 F1203 X115.426 Y115.622 E1.45765
G1 F1206 X115.746 Y115.316 E1.4723
G1 F1203 X116.005 Y115.132 E1.48284
G1 F1194 X116.384 Y114.931 E1.49718
G1 F1203 X116.829 Y114.774 E1.51284
G1 F1212.1 X117.345 Y114.705 E1.52998
G1 F1209.1 X117.791 Y114.716 E1.54471
G1 F1200 X118.112 Y114.765 E1.55551
G1 F1206 X118.557 Y114.899 E1.57089
G1 F1209.1 X119.004 Y115.137 E1.58761
G1 F1212.1 X119.379 Y115.417 E1.60302
G1 F1221.4 X119.765 Y115.845 E1.62185
G1 F1215.2 X119.969 Y116.182 E1.63479
G1 F1209.1 X120.137 Y116.562 E1.6485
G1 X120.264 Y117.014 E1.664
G1 X120.299 Y117.445 E1.67828
G1 F1200 X120.291 Y117.75 E1.68842
G1 X120.236 Y118.099 E1.70018
G1 F1215.2 X120.12 Y118.502 E1.71395
G1 F1221.4 X119.932 Y118.887 E1.72795
G1 X119.676 Y119.275 E1.74314
G1 F1215.2 X119.302 Y119.645 E1.76042
G1 F1209.1 X119.034 Y119.841 E1.77138
G1 F1206 X118.578 Y120.095 E1.78865
G1 F1212.1 X118.028 Y120.255 E1.80751
G1 F1218.3 X117.604 Y120.297 E1.82147
G1 F1212.1 X117.205 Y120.289 E1.83461
G0 F6000 X117.296 Y120.698
G1 F1182.3 X117.76 Y120.692 E1.85028
G1 F1194 X118.207 Y120.624 E1.86539
G1 F1197 X118.769 Y120.448 E1.88503
G1 F1194 X119.122 Y120.256 E1.89846
G1 X119.48 Y120.013 E1.91292
G1 X119.723 Y119.8 E1.92373
G1 F1200 X120.027 Y119.468 E1.9387
G1 F1203 X120.205 Y119.21 E1.9491
G1 F1197 X120.441 Y118.773 E1.96566
G1 F1191.1 X120.598 Y118.322 E1.98166
G1 F1185.2 X120.696 Y117.765 E2.00071
G1 F1188.1 X120.693 Y117.29 E2.01666
G1 F1203 X120.653 Y116.943 E2.02825
G1 F1206 X120.552 Y116.543 E2.0419
G1 F1194 X120.434 Y116.227 E2.05318
G1 F1203 X120.321 Y115.999 E2.06162
G1 F1194 X120.18 Y115.743 E2.07139
G1 F1185.2 X119.836 Y115.315 E2.08988
G1 F1194 X119.563 Y115.049 E2.10262
G1 F1197 X119.209 Y114.791 E2.11723
G1 F1194 X118.916 Y114.632 E2.12837
G1 F1203 X118.666 Y114.518 E2.13749
G1 X118.204 Y114.371 E2.15357
G1 F1200 X117.838 Y114.323 E2.16585
G1 F1194 X117.553 Y114.295 E2.17542
G1 X117.295 Y114.311 E2.18406
G1 F1200 X116.998 Y114.341 E2.19399
G1 F1203 X116.673 Y114.408 E2.205
G1 F1200 X116.185 Y114.577 E2.22218
G1 F1188.1 X115.734 Y114.827 E2.2395
G1 F1197 X115.501 Y115.005 E2.24928
G1 F1194 X115.305 Y115.167 E2.25778
G1 F1185.2 X114.949 Y115.57 E2.27588
G1 X114.701 Y115.938 E2.29083
G1 F1191.1 X114.482 Y116.443 E2.30927
G1 F1206 X114.391 Y116.743 E2.31965
G1 F1203 X114.33 Y117.065 E2.33052
G1 F1194 X114.303 Y117.401 E2.34179
G1 X114.305 Y117.791 E2.35483
G1 F1191.1 X114.428 Y118.415 E2.37614
G1 F1188.1 X114.593 Y118.833 E2.39123
G1 F1197 X114.795 Y119.208 E2.40544
G1 X115.049 Y119.559 E2.41988
G1 F1194 X115.354 Y119.884 E2.43478
G1 F1191.1 X115.709 Y120.15 E2.44965
G1 F1188.1 X116.011 Y120.333 E2.46151
G1 F1191.1 X116.338 Y120.48 E2.47352
G1 X116.741 Y120.613 E2.48774
G1 F1179.4 X117.296 Y120.698 E2.50674
G1 F2700 E-2.49326
;MESH:Spacer.stl(1)
G0 F6000 X117.301 Y120.536
G0 X124.83 Y116.745
G0 X124.813 Y116.902
;TYPE:WALL-OUTER
G1 F2700 E2.50674
G1 F1197 X125.243 Y116.906 E2.52108
G1 F1194 X125.79 Y116.837 E2.53951
G1 F1191.1 X126.305 Y116.665 E2.55771
G1 F1197 X126.603 Y116.523 E2.56871
G1 F1191.1 X126.972 Y116.292 E2.5833
G1 F1182.3 X127.35 Y115.973 E2.6
G1 F1203 X127.531 Y115.763 E2.6092
G1 F1212.1 X127.702 Y115.542 E2.6184
G1 F1197 X127.874 Y115.269 E2.62916
G1 X128.018 Y114.976 E2.64004
G1 F1200 X128.161 Y114.574 E2.65423
G1 F1206 X128.254 Y114.131 E2.66921
G1 F1200 X128.278 Y113.816 E2.67972
G1 F1185.2 X128.274 Y113.445 E2.69222
G1 F1188.1 X128.198 Y112.993 E2.70761
G1 F1200 X128.081 Y112.596 E2.72138
G1 F1206 X127.897 Y112.186 E2.73625
G1 F1203 X127.663 Y111.818 E2.75072
G1 F1197 X127.319 Y111.411 E2.76849
G1 F1194 X126.893 Y111.067 E2.78679
G1 X126.544 Y110.864 E2.80029
G1 X126.242 Y110.73 E2.81133
G1 X125.935 Y110.627 E2.82215
G1 F1206 X125.625 Y110.553 E2.8327
G1 F1203 X125.175 Y110.512 E2.84769
G1 F1194 X124.853 Y110.518 E2.85846
G1 X124.364 Y110.579 E2.87493
G1 X123.901 Y110.736 E2.89127
G1 F1197 X123.6 Y110.872 E2.90229
G1 X123.298 Y111.048 E2.91394
G1 X123.011 Y111.272 E2.92608
G1 X122.738 Y111.525 E2.93849
G1 X122.497 Y111.822 E2.95124
G1 F1194 X122.262 Y112.2 E2.96612
G1 F1197 X122.125 Y112.484 E2.97663
G1 F1209.1 X121.984 Y112.897 E2.99104
G1 F1203 X121.898 Y113.327 E3.00559
G1 F1197 X121.882 Y113.716 E3.01857
G1 F1194 X121.905 Y114.143 E3.03286
G1 F1191.1 X122.005 Y114.583 E3.04799
G1 F1200 X122.151 Y114.995 E3.06252
G1 X122.347 Y115.372 E3.07666
G1 F1197 X122.53 Y115.64 E3.08748
G1 X122.826 Y115.98 E3.10251
G1 X123.059 Y116.189 E3.11294
G1 X123.429 Y116.448 E3.128
G1 F1191.1 X123.765 Y116.629 E3.14079
G1 F1185.2 X124.271 Y116.809 E3.15888
G1 F1188.1 X124.813 Y116.902 E3.17735
G0 F6000 X124.835 Y116.498
G1 F1194 X124.446 Y116.437 E3.19051
G1 F1203 X124.152 Y116.35 E3.20069
G1 F1206 X123.743 Y116.17 E3.21547
G1 X123.393 Y115.943 E3.22928
G1 X123.128 Y115.716 E3.24083
G1 F1203 X122.913 Y115.482 E3.25137
G1 X122.714 Y115.205 E3.26269
G1 F1209.1 X122.483 Y114.767 E3.27903
G1 F1206 X122.388 Y114.462 E3.2896
G1 X122.321 Y114.215 E3.29807
G1 F1212.1 X122.283 Y113.787 E3.31222
G1 F1200 X122.294 Y113.426 E3.32423
G1 F1203 X122.361 Y113.018 E3.33795
G1 F1206 X122.512 Y112.595 E3.35282
G1 F1203 X122.712 Y112.218 E3.36697
G1 F1212.1 X122.976 Y111.854 E3.38178
G1 F1221.4 X123.408 Y111.451 E3.40109
G1 F1215.2 X123.842 Y111.197 E3.4176
G1 F1206 X124.137 Y111.073 E3.42819
G1 X124.53 Y110.957 E3.44175
G1 F1209.1 X124.977 Y110.911 E3.45659
G1 X125.519 Y110.937 E3.4745
G1 F1212.1 X125.959 Y111.051 E3.48947
G1 F1203 X126.35 Y111.211 E3.50348
G1 F1200 X126.741 Y111.454 E3.51879
G1 X127.036 Y111.697 E3.53151
G1 F1203 X127.288 Y111.985 E3.5442
G1 F1215.2 X127.527 Y112.333 E3.55807
G1 F1212.1 X127.704 Y112.728 E3.57232
G1 F1206 X127.827 Y113.159 E3.58715
G1 X127.879 Y113.604 E3.60198
G1 F1215.2 X127.854 Y114.147 E3.61983
G1 F1218.3 X127.743 Y114.567 E3.63407
G1 F1203 X127.642 Y114.839 E3.64369
G1 F1206 X127.473 Y115.164 E3.65581
G1 F1218.3 X127.195 Y115.562 E3.67172
G1 F1221.4 X126.835 Y115.892 E3.68768
G1 F1215.2 X126.483 Y116.133 E3.70169
G1 F1206 X126.166 Y116.29 E3.7134
G1 F1197 X125.758 Y116.428 E3.72776
G1 F1209.1 X125.331 Y116.503 E3.74207
G1 F1206 X124.835 Y116.498 E3.75848
G1 F2700 E-1.24152
;MESH:Spacer.stl(2)
G0 F6000 X124.827 Y116.655
G0 X123.292 Y124.872
G0 X123.347 Y124.732
;TYPE:WALL-OUTER
G1 F2700 E3.75848
G1 F1203 X123.038 Y124.558 E3.77025
G1 F1206 X122.691 Y124.291 E3.78474
G1 X122.399 Y123.985 E3.79874
G1 F1209.1 X122.2 Y123.709 E3.80997
G1 X122.042 Y123.431 E3.82052
G1 F1212.1 X121.88 Y123.031 E3.83473
G1 F1218.3 X121.793 Y122.613 E3.84872
G1 F1206 X121.763 Y122.288 E3.85952
G1 F1200 X121.775 Y121.946 E3.87091
G1 F1206 X121.832 Y121.543 E3.88437
G1 F1200 X121.984 Y121.115 E3.89948
G1 X122.14 Y120.807 E3.91096
G1 F1206 X122.32 Y120.531 E3.92187
G1 F1209.1 X122.604 Y120.209 E3.93604
G1 X122.936 Y119.931 E3.95034
G1 F1194 X123.349 Y119.684 E3.96642
G1 F1200 X123.706 Y119.537 E3.97926
G1 F1209.1 X124.133 Y119.443 E3.9937
G1 F1212.1 X124.5 Y119.408 E4.00584
G1 F1221.4 X125.016 Y119.44 E4.02273
G1 X125.532 Y119.576 E4.04017
G1 F1200 X125.781 Y119.694 E4.04933
G1 F1197 X126.028 Y119.823 E4.05862
G1 F1209.1 X126.31 Y120.022 E4.07002
G1 X126.553 Y120.239 E4.08077
G1 F1215.2 X126.838 Y120.566 E4.09502
G1 F1200 X126.977 Y120.799 E4.10404
G1 F1203 X127.148 Y121.117 E4.11602
G1 F1215.2 X127.281 Y121.535 E4.13043
G1 X127.36 Y121.993 E4.14569
G1 F1209.1 X127.348 Y122.509 E4.16273
G1 X127.267 Y122.959 E4.17782
G1 F1212.1 X127.206 Y123.127 E4.18371
G1 X127.079 Y123.452 E4.1952
G1 F1218.3 X126.839 Y123.84 E4.21015
G1 F1212.1 X126.633 Y124.093 E4.22089
G1 F1218.3 X126.319 Y124.39 E4.23505
G1 F1209.1 X126.039 Y124.589 E4.24639
G1 F1200 X125.773 Y124.735 E4.25648
G1 F1212.1 X125.353 Y124.901 E4.27135
G1 F1203 X125.093 Y124.958 E4.28018
G1 F1200 X124.817 Y125.005 E4.28949
G1 F1215.2 X124.248 Y124.999 E4.30818
G1 F1209.1 X123.744 Y124.889 E4.32521
G1 F1203 X123.347 Y124.732 E4.33938
G0 F6000 X123.292 Y124.872
G0 X124.315 Y125.253
G0 X124.294 Y125.406
G1 F1200 X124.726 Y125.407 E4.35374
G1 F1194 X125.171 Y125.357 E4.36871
G1 F1188.1 X125.604 Y125.238 E4.3838
G1 F1194 X125.987 Y125.075 E4.39771
G1 X126.333 Y124.881 E4.41097
G1 F1191.1 X126.747 Y124.545 E4.42884
G1 F1194 X127.054 Y124.216 E4.44388
G1 X127.243 Y123.954 E4.45468
G1 F1200 X127.407 Y123.682 E4.46524
G1 F1203 X127.581 Y123.267 E4.48017
G1 X127.672 Y122.966 E4.4906
G1 F1200 X127.752 Y122.538 E4.50509
G1 F1194 X127.762 Y122.166 E4.51753
G1 F1212.1 X127.751 Y121.96 E4.52432
G1 X127.722 Y121.705 E4.53277
G1 F1200 X127.658 Y121.402 E4.54307
G1 F1203 X127.56 Y121.081 E4.5542
G1 F1191.1 X127.332 Y120.598 E4.5721
G1 F1182.3 X127.116 Y120.273 E4.58528
G1 F1194 X126.864 Y119.987 E4.59802
G1 F1200 X126.614 Y119.755 E4.60936
G1 X126.27 Y119.503 E4.62354
G1 F1194 X125.962 Y119.331 E4.63534
G1 F1188.1 X125.565 Y119.16 E4.64986
G1 F1200 X124.994 Y119.037 E4.66928
G1 F1197 X124.553 Y119.004 E4.68403
G1 F1191.1 X124.02 Y119.056 E4.70197
G1 F1206 X123.595 Y119.158 E4.71644
G1 F1200 X123.182 Y119.315 E4.73113
G1 F1194 X122.755 Y119.572 E4.74779
G1 X122.494 Y119.772 E4.75878
G1 F1191.1 X122.187 Y120.069 E4.7731
G1 X121.907 Y120.416 E4.78804
G1 F1188.1 X121.6 Y120.983 E4.8097
G1 X121.42 Y121.552 E4.82975
G1 F1191.1 X121.367 Y122.057 E4.84676
G1 F1188.1 X121.366 Y122.446 E4.85983
G1 F1191.1 X121.464 Y123.025 E4.87951
G1 F1197 X121.593 Y123.403 E4.89283
G1 X121.721 Y123.68 E4.903
G1 F1194 X121.949 Y124.054 E4.91764
G1 F1191.1 X122.225 Y124.392 E4.93226
G1 X122.546 Y124.692 E4.94699
G1 F1194 X122.899 Y124.943 E4.96147
G1 F1200 X123.188 Y125.098 E4.97237
G1 F1203 X123.558 Y125.247 E4.98561
G1 F1197 X123.86 Y125.329 E4.99604
G1 F1194 X124.294 Y125.406 E5.01077
G1 F2700 E0.01077
;MESH:Spacer.stl(5)
G0 F6000 X124.315 Y125.253
G0 X116.799 Y129.041
G0 X116.829 Y129.207
;TYPE:WALL-OUTER
G1 F2700 E5.01077
G1 F1194 X117.307 Y129.183 E5.02677
G1 F1200 X117.685 Y129.125 E5.03949
G1 X118.252 Y128.948 E5.05925
G1 F1194 X118.602 Y128.757 E5.07258
G1 F1200 X118.873 Y128.584 E5.08327
G1 F1206 X119.206 Y128.3 E5.09775
G1 F1197 X119.428 Y128.06 E5.10865
G1 F1194 X119.694 Y127.696 E5.12372
G1 X119.846 Y127.425 E5.13411
G1 F1197 X120.019 Y127.005 E5.14926
G1 F1200 X120.104 Y126.695 E5.15995
G1 F1194 X120.177 Y126.265 E5.17453
G1 F1188.1 X120.174 Y125.79 E5.19048
G1 F1203 X120.138 Y125.466 E5.2013
G1 X120.006 Y124.937 E5.21939
G1 F1188.1 X119.776 Y124.43 E5.23809
G1 F1197 X119.55 Y124.091 E5.25167
G1 X119.248 Y123.731 E5.26734
G1 F1194 X118.915 Y123.448 E5.28195
G1 F1200 X118.643 Y123.265 E5.29285
G1 F1194 X118.397 Y123.132 E5.3022
G1 X118.147 Y123.021 E5.31134
G1 X117.694 Y122.874 E5.32726
G1 F1197 X117.286 Y122.816 E5.341
G1 F1203 X116.816 Y122.804 E5.3566
G1 F1197 X116.482 Y122.841 E5.36781
G1 F1191.1 X116.17 Y122.906 E5.37849
G1 F1188.1 X115.667 Y123.077 E5.39633
G1 F1185.2 X115.262 Y123.29 E5.41174
G1 F1191.1 X114.872 Y123.596 E5.42836
G1 F1197 X114.644 Y123.816 E5.43892
G1 F1200 X114.367 Y124.158 E5.45356
G1 F1191.1 X114.134 Y124.529 E5.46824
G1 F1194 X113.961 Y124.95 E5.48345
G1 F1206 X113.872 Y125.243 E5.49359
G1 F1203 X113.811 Y125.565 E5.50446
G1 F1194 X113.784 Y125.901 E5.51573
G1 X113.786 Y126.291 E5.52876
G1 F1191.1 X113.909 Y126.915 E5.55008
G1 F1188.1 X114.073 Y127.333 E5.56516
G1 F1194 X114.225 Y127.623 E5.5761
G1 X114.465 Y127.976 E5.59037
G1 X114.794 Y128.342 E5.60682
G1 F1188.1 X115.167 Y128.643 E5.62292
