;FLAVOR:Marlin
;TIME:2204
;Filament used: 1.14567m
;Layer height: 0.2
;MINX:90.335
;MINY:85.636
;MINZ:0.2
;MAXX:144.652
;MAXY:144.301
;MAXZ:4.4
;Generated with Cura_SteamEngine 5.2.1
M140 S50
M105
M190 S50
M104 S200
M105
M109 S200
M82 ;absolute extrusion mode
; Ender 3 Custom Start G-code
G92 E0 ; Reset Extruder
G28 ; Home all axes
G1 Z2.0 F3000 ; Move Z Axis up little to prevent scratching of Heat Bed
G1 X0.1 Y20 Z0.3 F5000.0 ; Move to start position
G1 X0.1 Y200.0 Z0.3 F1500.0 E15 ; Draw the first line
G1 X0.4 Y200.0 Z0.3 F5000.0 ; Move to side a little
G1 X0.4 Y20 Z0.3 F1500.0 E30 ; Draw the second line
G92 E0 ; Reset Extruder
G1 Z2.0 F3000 ; Move Z Axis up little to prevent scratching of Heat Bed
G1 X5 Y20 Z0.3 F5000.0 ; Move over to prevent blob squish
G92 E0
G92 E0
G1 F2700 E-5
;LAYER_COUNT:22
;LAYER:0
M107
G0 F6000 X139.66 Y99.23 Z0.2
;TYPE:SKIRT
G1 F2700 E0
G1 F1200 X139.855 Y99.065 E0.0085
G1 X140.008 Y99.039 E0.01366
G1 X140.26 Y99.135 E0.02263
G1 X140.377 Y99.308 E0.02957
G1 X140.394 Y99.491 E0.03569
G1 X140.348 Y99.629 E0.04052
G1 X140.204 Y99.777 E0.04739
G1 X140.072 Y99.827 E0.05209
G1 X139.837 Y99.799 E0.05996
G1 X139.652 Y99.629 E0.06831
G1 X139.603 Y99.411 E0.07575
G1 X139.66 Y99.23 E0.08206
G0 F6000 X139.325 Y99.01
G1 F1200 X139.518 Y98.8 E0.09154
G1 X139.7 Y98.696 E0.09852
G1 X140.033 Y98.639 E0.10975
G1 X140.3 Y98.696 E0.11883
G1 X140.482 Y98.8 E0.12581
G1 X140.675 Y99.01 E0.13529
G1 X140.757 Y99.178 E0.14151
G1 X140.797 Y99.402 E0.14908
G1 X140.725 Y99.771 E0.16158
G1 X140.62 Y99.94 E0.1682
G1 X140.415 Y100.118 E0.17723
G1 X140.039 Y100.236 E0.19034
G1 X139.781 Y100.203 E0.19899
G1 X139.585 Y100.118 E0.20609
G1 X139.297 Y99.848 E0.21922
G1 X139.205 Y99.524 E0.23043
G1 X139.207 Y99.345 E0.23638
G1 X139.325 Y99.01 E0.24819
G0 F6000 X138.981 Y98.806
G1 F1200 X139.184 Y98.559 E0.25883
G1 X139.429 Y98.382 E0.26888
G1 X139.733 Y98.268 E0.27968
G1 X140.047 Y98.239 E0.29017
G1 X140.371 Y98.296 E0.30111
G1 X140.571 Y98.382 E0.30835
G1 X140.816 Y98.559 E0.3184
G1 X140.961 Y98.721 E0.32563
G1 X141.137 Y99.047 E0.33796
G1 X141.216 Y99.421 E0.35067
G1 X141.136 Y99.819 E0.36417
G1 X140.926 Y100.198 E0.37858
G1 X140.779 Y100.348 E0.38557
G1 X140.416 Y100.56 E0.39955
G1 X140.054 Y100.637 E0.41186
G1 X139.661 Y100.605 E0.42497
G1 X139.221 Y100.348 E0.44192
G1 X139.074 Y100.198 E0.44891
G1 X138.864 Y99.819 E0.46332
G1 X138.806 Y99.567 E0.47192
G1 X138.809 Y99.301 E0.48077
G1 X138.884 Y99.001 E0.49105
G1 X138.981 Y98.806 E0.4983
G0 F6000 X138.603 Y98.643
G1 F1200 X138.863 Y98.303 E0.51253
G1 X139.134 Y98.092 E0.52396
G1 X139.395 Y97.956 E0.53374
G1 X139.656 Y97.875 E0.54283
G1 X140 Y97.831 E0.55437
G1 X140.344 Y97.875 E0.5659
G1 X140.605 Y97.956 E0.57499
G1 X140.866 Y98.092 E0.58478
G1 X141.137 Y98.303 E0.5962
G1 X141.358 Y98.592 E0.6083
G1 X141.557 Y99.002 E0.62346
G1 X141.597 Y99.394 E0.63657
G1 X141.581 Y99.677 E0.646
G1 X141.513 Y99.952 E0.65542
G1 X141.396 Y100.216 E0.66502
G1 X141.197 Y100.508 E0.67678
G1 X140.883 Y100.778 E0.69055
G1 X140.568 Y100.931 E0.7022
G1 X140.17 Y101.04 E0.71592
G1 X139.855 Y101.029 E0.7264
G1 X139.499 Y100.964 E0.73844
G1 X139.117 Y100.778 E0.75257
G1 X138.803 Y100.508 E0.76635
G1 X138.604 Y100.216 E0.7781
G1 X138.487 Y99.951 E0.78773
G1 X138.407 Y99.614 E0.79925
G1 X138.411 Y99.259 E0.81106
G1 X138.467 Y98.982 E0.82046
G1 X138.603 Y98.643 E0.83261
G0 F6000 X138.299 Y98.385
G1 F1200 X138.516 Y98.098 E0.84458
G1 X138.774 Y97.857 E0.85632
G1 X139.058 Y97.673 E0.86757
G1 X139.466 Y97.498 E0.88234
G1 X140 Y97.427 E0.90026
G1 X140.534 Y97.498 E0.91818
G1 X140.942 Y97.673 E0.93294
G1 X141.226 Y97.857 E0.9442
G1 X141.484 Y98.098 E0.95594
G1 X141.74 Y98.436 E0.97004
G1 X141.896 Y98.788 E0.98285
G1 X141.961 Y99.047 E0.99173
G1 X141.998 Y99.393 E1.0033
G1 X141.975 Y99.75 E1.0152
G1 X141.891 Y100.084 E1.02666
G1 X141.75 Y100.404 E1.03829
G1 X141.495 Y100.779 E1.05337
G1 X141.105 Y101.113 E1.07045
G1 X140.708 Y101.306 E1.08513
G1 X140.35 Y101.404 E1.09747
G1 X140.096 Y101.438 E1.106
G1 X139.826 Y101.428 E1.11498
G1 X139.374 Y101.346 E1.13026
G1 X138.895 Y101.113 E1.14798
G1 X138.566 Y100.831 E1.16239
G1 X138.35 Y100.564 E1.17381
G1 X138.175 Y100.254 E1.18565
G1 X138.06 Y99.917 E1.1975
G1 X138.008 Y99.656 E1.20635
G1 X137.999 Y99.283 E1.21876
G1 X138.096 Y98.797 E1.23524
G1 X138.299 Y98.385 E1.25052
G1 F2700 E-3.74948
G0 F6000 X134.823 Y128.522
G1 F2700 E1.25052
G1 F1200 X135.218 Y128.638 E1.26421
G1 X135.511 Y128.779 E1.27503
G1 X135.843 Y129.013 E1.28854
G1 X136.111 Y129.321 E1.30211
G1 X136.284 Y129.603 E1.31312
G1 X136.435 Y129.974 E1.32644
G1 X136.504 Y130.46 E1.34277
G1 X136.464 Y130.864 E1.35627
G1 X136.377 Y131.181 E1.3672
G1 X136.241 Y131.479 E1.3781
G1 X136.062 Y131.746 E1.38879
G1 X135.84 Y131.981 E1.39954
G1 X135.514 Y132.23 E1.41319
G1 X135.061 Y132.427 E1.42962
G1 X134.668 Y132.491 E1.44286
G1 X134.332 Y132.491 E1.45403
G1 X133.939 Y132.427 E1.46728
G1 X133.486 Y132.23 E1.48371
G1 X133.16 Y131.981 E1.49735
G1 X132.938 Y131.746 E1.5081
G1 X132.759 Y131.479 E1.5188
G1 X132.623 Y131.181 E1.52969
G1 X132.536 Y130.864 E1.54062
G1 X132.496 Y130.46 E1.55413
G1 X132.565 Y129.974 E1.57045
G1 X132.716 Y129.603 E1.58378
G1 X132.889 Y129.321 E1.59478
G1 X133.157 Y129.013 E1.60836
G1 X133.489 Y128.779 E1.62187
G1 X133.784 Y128.637 E1.63276
G1 X134.093 Y128.546 E1.64347
G1 X134.422 Y128.507 E1.65449
G1 X134.823 Y128.522 E1.66784
G0 F6000 X134.758 Y128.92
G1 F1200 X135.074 Y129.013 E1.67879
G1 X135.308 Y129.125 E1.68742
G1 X135.574 Y129.313 E1.69825
G1 X135.787 Y129.558 E1.70905
G1 X135.927 Y129.786 E1.71795
G1 X136.046 Y130.078 E1.72844
G1 X136.101 Y130.468 E1.74154
G1 X136.069 Y130.79 E1.7523
G1 X136 Y131.044 E1.76106
G1 X135.89 Y131.284 E1.76984
G1 X135.75 Y131.493 E1.7782
G1 X135.567 Y131.687 E1.78707
G1 X135.312 Y131.882 E1.79775
G1 X134.949 Y132.039 E1.8109
G1 X134.634 Y132.091 E1.82152
G1 X134.366 Y132.091 E1.83044
G1 X134.051 Y132.039 E1.84106
G1 X133.688 Y131.882 E1.85421
G1 X133.433 Y131.687 E1.86489
G1 X133.25 Y131.493 E1.87376
G1 X133.11 Y131.284 E1.88212
G1 X133 Y131.044 E1.89091
G1 X132.931 Y130.79 E1.89966
G1 X132.899 Y130.468 E1.91042
G1 X132.954 Y130.078 E1.92352
G1 X133.073 Y129.786 E1.93401
G1 X133.213 Y129.558 E1.94291
G1 X133.426 Y129.313 E1.95371
G1 X133.692 Y129.125 E1.96454
G1 X134.051 Y128.953 E1.97778
G1 X134.435 Y128.908 E1.99064
G1 X134.758 Y128.92 E2.00139
G0 F6000 X134.693 Y129.317
G1 F1200 X134.925 Y129.385 E2.00943
G1 X135.304 Y129.612 E2.02412
G1 X135.569 Y129.967 E2.03886
G1 X135.657 Y130.183 E2.04662
G1 X135.698 Y130.476 E2.05646
G1 X135.675 Y130.717 E2.06451
G1 X135.538 Y131.091 E2.07776
G1 X135.3 Y131.387 E2.09039
G1 X135.107 Y131.535 E2.09848
G1 X134.836 Y131.652 E2.1083
G1 X134.4 Y131.691 E2.12285
G1 X134.164 Y131.652 E2.13081
G1 X133.893 Y131.535 E2.14063
G1 X133.7 Y131.387 E2.14872
G1 X133.462 Y131.091 E2.16135
G1 X133.325 Y130.717 E2.1746
G1 X133.302 Y130.476 E2.18265
G1 X133.343 Y130.183 E2.19249
G1 X133.431 Y129.967 E2.20025
G1 X133.696 Y129.612 E2.21498
G1 X133.897 Y129.47 E2.22317
G1 X134.254 Y129.332 E2.2359
G1 X134.693 Y129.317 E2.25051
G0 F6000 X134.561 Y129.69
G1 F1200 X134.903 Y129.818 E2.26265
G1 X135.136 Y130.028 E2.27309
G1 X135.269 Y130.292 E2.28292
G1 X135.296 Y130.483 E2.28933
G1 X135.244 Y130.775 E2.2992
G1 X135.123 Y130.992 E2.30746
G1 X134.902 Y131.188 E2.31729
G1 X134.724 Y131.265 E2.32374
G1 X134.434 Y131.291 E2.33342
G1 X134.098 Y131.188 E2.34511
G1 X133.877 Y130.992 E2.35493
G1 X133.756 Y130.775 E2.3632
G1 X133.704 Y130.483 E2.37306
G1 X133.731 Y130.292 E2.37948
G1 X133.864 Y130.028 E2.38931
G1 X133.966 Y129.911 E2.39447
G1 X134.217 Y129.76 E2.40422
G1 X134.561 Y129.69 E2.41589
G0 F6000 X134.563 Y130.113
G1 F1200 X134.699 Y130.164 E2.42072
G1 X134.817 Y130.272 E2.42604
G1 X134.878 Y130.393 E2.43055
G1 X134.869 Y130.632 E2.43851
G1 X134.761 Y130.793 E2.44495
G1 X134.608 Y130.879 E2.45079
G1 X134.462 Y130.891 E2.45566
G1 X134.3 Y130.84 E2.46131
G1 X134.158 Y130.691 E2.46816
G1 X134.115 Y130.572 E2.47237
G1 X134.122 Y130.393 E2.47832
G1 X134.183 Y130.272 E2.48283
G1 X134.301 Y130.164 E2.48815
G1 X134.563 Y130.113 E2.49703
G1 F2700 E-2.50297
G0 F6000 X102.504 Y130.46
G1 F2700 E2.49703
G1 F1200 X102.464 Y130.864 E2.51053
G1 X102.377 Y131.181 E2.52147
G1 X102.241 Y131.479 E2.53236
G1 X102.062 Y131.746 E2.54305
G1 X101.84 Y131.981 E2.5538
G1 X101.514 Y132.23 E2.56745
G1 X101.061 Y132.427 E2.58388
G1 X100.668 Y132.491 E2.59712
G1 X100.332 Y132.491 E2.6083
G1 X99.939 Y132.427 E2.62154
G1 X99.486 Y132.23 E2.63797
G1 X99.16 Y131.981 E2.65161
G1 X98.938 Y131.746 E2.66237
G1 X98.759 Y131.479 E2.67306
G1 X98.623 Y131.181 E2.68395
G1 X98.536 Y130.864 E2.69489
G1 X98.496 Y130.46 E2.70839
G1 X98.565 Y129.974 E2.72472
G1 X98.716 Y129.603 E2.73804
G1 X98.889 Y129.321 E2.74904
G1 X99.157 Y129.013 E2.76262
G1 X99.489 Y128.779 E2.77613
G1 X99.784 Y128.637 E2.78702
G1 X100.093 Y128.546 E2.79773
G1 X100.422 Y128.507 E2.80875
G1 X100.823 Y128.522 E2.8221
G1 X101.218 Y128.638 E2.83579
G1 X101.511 Y128.779 E2.84661
G1 X101.843 Y129.013 E2.86012
G1 X102.111 Y129.321 E2.8737
G1 X102.284 Y129.603 E2.8847
G1 X102.435 Y129.974 E2.89802
G1 X102.504 Y130.46 E2.91435
G0 F6000 X102.101 Y130.468
G1 F1200 X102.069 Y130.79 E2.92511
G1 X102 Y131.044 E2.93386
G1 X101.89 Y131.284 E2.94265
G1 X101.75 Y131.493 E2.95101
G1 X101.567 Y131.687 E2.95988
G1 X101.312 Y131.882 E2.97056
G1 X100.949 Y132.039 E2.98371
G1 X100.634 Y132.091 E2.99433
G1 X100.366 Y132.091 E3.00325
G1 X100.051 Y132.039 E3.01387
G1 X99.688 Y131.882 E3.02702
G1 X99.433 Y131.687 E3.0377
G1 X99.25 Y131.493 E3.04657
G1 X99.11 Y131.284 E3.05493
G1 X99 Y131.044 E3.06371
G1 X98.931 Y130.79 E3.07247
G1 X98.899 Y130.468 E3.08323
G1 X98.954 Y130.078 E3.09633
G1 X99.073 Y129.786 E3.10682
G1 X99.213 Y129.558 E3.11572
G1 X99.426 Y129.313 E3.12651
G1 X99.692 Y129.125 E3.13735
G1 X100.051 Y128.953 E3.15059
G1 X100.435 Y128.908 E3.16345
G1 X100.758 Y128.92 E3.1742
G1 X101.074 Y129.013 E3.18515
G1 X101.308 Y129.125 E3.19378
G1 X101.574 Y129.313 E3.20462
G1 X101.787 Y129.558 E3.21541
G1 X101.927 Y129.786 E3.22431
G1 X102.046 Y130.078 E3.2348
G1 X102.101 Y130.468 E3.2479
G0 F6000 X101.698 Y130.476
G1 F1200 X101.675 Y130.717 E3.25595
G1 X101.538 Y131.091 E3.2692
G1 X101.3 Y131.387 E3.28183
G1 X101.107 Y131.535 E3.28992
G1 X100.836 Y131.652 E3.29974
G1 X100.4 Y131.691 E3.3143
G1 X100.164 Y131.652 E3.32226
G1 X99.893 Y131.535 E3.33207
G1 X99.7 Y131.387 E3.34016
G1 X99.462 Y131.091 E3.35279
G1 X99.325 Y130.717 E3.36604
G1 X99.302 Y130.476 E3.37409
G1 X99.343 Y130.183 E3.38393
G1 X99.431 Y129.967 E3.39169
G1 X99.696 Y129.612 E3.40643
G1 X99.897 Y129.47 E3.41461
G1 X100.254 Y129.332 E3.42734
G1 X100.693 Y129.317 E3.44195
G1 X100.925 Y129.385 E3.44999
G1 X101.304 Y129.612 E3.46469
G1 X101.569 Y129.967 E3.47942
G1 X101.657 Y130.183 E3.48718
G1 X101.698 Y130.476 E3.49702
G0 F6000 X101.296 Y130.483
G1 F1200 X101.244 Y130.775 E3.50688
G1 X101.123 Y130.992 E3.51515
G1 X100.902 Y131.188 E3.52497
G1 X100.724 Y131.265 E3.53142
G1 X100.434 Y131.291 E3.54111
G1 X100.098 Y131.188 E3.55279
G1 X99.877 Y130.992 E3.56262
G1 X99.756 Y130.775 E3.57088
G1 X99.704 Y130.483 E3.58075
G1 X99.731 Y130.292 E3.58716
G1 X99.864 Y130.028 E3.597
G1 X99.966 Y129.911 E3.60216
G1 X100.217 Y129.76 E3.6119
G1 X100.561 Y129.69 E3.62358
G1 X100.903 Y129.818 E3.63572
G1 X101.136 Y130.028 E3.64616
G1 X101.269 Y130.292 E3.65599
G1 X101.296 Y130.483 E3.6624
G0 F6000 X100.878 Y130.393
G1 F1200 X100.869 Y130.632 E3.67036
G1 X100.761 Y130.793 E3.67681
G1 X100.608 Y130.879 E3.68264
G1 X100.462 Y130.891 E3.68752
G1 X100.3 Y130.84 E3.69316
G1 X100.158 Y130.691 E3.70001
G1 X100.115 Y130.572 E3.70422
G1 X100.122 Y130.393 E3.71018
G1 X100.183 Y130.272 E3.71468
G1 X100.301 Y130.164 E3.72
G1 X100.563 Y130.113 E3.72888
G1 X100.699 Y130.164 E3.73371
G1 X100.817 Y130.272 E3.73903
G1 X100.878 Y130.393 E3.74354
G1 F2700 E-1.25646
G0 F6000 X95.35 Y101.404
G1 F2700 E3.74354
G1 F1200 X95.096 Y101.438 E3.75206
G1 X94.826 Y101.428 E3.76105
G1 X94.374 Y101.346 E3.77633
G1 X93.895 Y101.113 E3.79405
G1 X93.566 Y100.831 E3.80846
G1 X93.35 Y100.564 E3.81988
G1 X93.175 Y100.254 E3.83172
G1 X93.06 Y99.917 E3.84356
G1 X93.008 Y99.656 E3.85242
G1 X92.999 Y99.283 E3.86483
G1 X93.096 Y98.797 E3.88131
G1 X93.299 Y98.385 E3.89658
G1 X93.516 Y98.098 E3.90855
G1 X93.774 Y97.857 E3.92029
G1 X94.058 Y97.673 E3.93155
G1 X94.466 Y97.498 E3.94632
G1 X95 Y97.427 E3.96423
G1 X95.534 Y97.498 E3.98215
G1 X95.942 Y97.673 E3.99692
G1 X96.226 Y97.857 E4.00817
G1 X96.484 Y98.098 E4.01991
G1 X96.74 Y98.436 E4.03402
G1 X96.896 Y98.788 E4.04682
G1 X96.961 Y99.047 E4.0557
G1 X96.998 Y99.393 E4.06728
G1 X96.975 Y99.75 E4.07917
G1 X96.891 Y100.084 E4.09063
G1 X96.75 Y100.404 E4.10226
G1 X96.495 Y100.779 E4.11734
G1 X96.105 Y101.113 E4.13442
G1 X95.708 Y101.306 E4.1491
G1 X95.35 Y101.404 E4.16145
G0 F6000 X95.17 Y101.04
G1 F1200 X94.855 Y101.029 E4.17193
G1 X94.499 Y100.964 E4.18397
G1 X94.117 Y100.778 E4.1981
G1 X93.803 Y100.508 E4.21187
G1 X93.604 Y100.216 E4.22363
G1 X93.487 Y99.951 E4.23326
G1 X93.407 Y99.614 E4.24478
G1 X93.411 Y99.259 E4.25659
G1 X93.467 Y98.982 E4.26599
G1 X93.603 Y98.643 E4.27814
G1 X93.863 Y98.303 E4.29237
G1 X94.134 Y98.092 E4.3038
G1 X94.395 Y97.956 E4.31359
G1 X94.656 Y97.875 E4.32268
G1 X95 Y97.831 E4.33421
G1 X95.344 Y97.875 E4.34574
G1 X95.605 Y97.956 E4.35483
G1 X95.866 Y98.092 E4.36462
G1 X96.137 Y98.303 E4.37605
G1 X96.358 Y98.592 E4.38815
G1 X96.557 Y99.002 E4.4033
G1 X96.597 Y99.394 E4.41641
G1 X96.581 Y99.677 E4.42584
G1 X96.513 Y99.952 E4.43526
G1 X96.396 Y100.216 E4.44486
G1 X96.197 Y100.508 E4.45662
G1 X95.883 Y100.778 E4.47039
G1 X95.568 Y100.931 E4.48204
G1 X95.17 Y101.04 E4.49576
G0 F6000 X95.054 Y100.637
G1 F1200 X94.661 Y100.605 E4.50888
G1 X94.221 Y100.348 E4.52583
G1 X94.074 Y100.198 E4.53281
G1 X93.864 Y99.819 E4.54722
G1 X93.806 Y99.567 E4.55582
G1 X93.809 Y99.301 E4.56467
G1 X93.884 Y99.001 E4.57496
G1 X93.981 Y98.806 E4.5822
G1 X94.184 Y98.559 E4.59283
G1 X94.429 Y98.382 E4.60289
G1 X94.733 Y98.268 E4.61368
G1 X95.047 Y98.239 E4.62417
G1 X95.371 Y98.296 E4.63511
G1 X95.571 Y98.382 E4.64236
G1 X95.816 Y98.559 E4.65241
G1 X95.961 Y98.721 E4.65964
G1 X96.137 Y99.047 E4.67196
G1 X96.216 Y99.421 E4.68468
G1 X96.136 Y99.819 E4.69818
G1 X95.926 Y100.198 E4.71259
G1 X95.779 Y100.348 E4.71957
G1 X95.416 Y100.56 E4.73356
G1 X95.054 Y100.637 E4.74587
G0 F6000 X95.039 Y100.236
G1 F1200 X94.781 Y100.203 E4.75452
G1 X94.585 Y100.118 E4.76162
G1 X94.297 Y99.848 E4.77475
G1 X94.205 Y99.524 E4.78595
G1 X94.207 Y99.345 E4.79191
G1 X94.325 Y99.01 E4.80372
G1 X94.518 Y98.8 E4.81321
G1 X94.7 Y98.696 E4.82018
G1 X95.033 Y98.639 E4.83142
G1 X95.3 Y98.696 E4.8405
G1 X95.482 Y98.8 E4.84747
G1 X95.675 Y99.01 E4.85696
G1 X95.757 Y99.178 E4.86317
G1 X95.797 Y99.402 E4.87074
G1 X95.725 Y99.771 E4.88325
G1 X95.62 Y99.94 E4.88986
G1 X95.415 Y100.118 E4.89889
G1 X95.039 Y100.236 E4.912
G0 F6000 X95.072 Y99.827
G1 F1200 X94.837 Y99.799 E4.91987
G1 X94.652 Y99.629 E4.92823
G1 X94.603 Y99.411 E4.93566
G1 X94.66 Y99.23 E4.94197
G1 X94.855 Y99.065 E4.95047
G1 X95.008 Y99.039 E4.95563
G1 X95.26 Y99.135 E4.9646
G1 X95.377 Y99.308 E4.97155
G1 X95.394 Y99.491 E4.97766
G1 X95.348 Y99.629 E4.9825
G1 X95.204 Y99.777 E4.98936
G1 X95.072 Y99.827 E4.99406
G1 F2700 E-0.00594
;MESH:sensor_brachet_frame.stl
G0 F6000 X94.594 Y101.735
G0 X93.555 Y102.445
;TYPE:WALL-OUTER
G1 F2700 E4.99406
G1 F738.5 X93.321 Y102.294 E5.00911
G1 F781.8 X93.091 Y102.13 E5.02353
G1 F796 X92.766 Y101.864 E5.04459
G1 F797.3 X92.491 Y101.589 E5.06406
G1 F800 X92.249 Y101.257 E5.08455
G1 F801.3 X92.111 Y101.03 E5.09779
G1 F802.7 X91.986 Y100.778 E5.11177
G1 F801.3 X91.889 Y100.538 E5.12467
G1 F800 X91.812 Y100.286 E5.13781
G1 F804 X91.721 Y99.866 E5.15915
G1 F801.3 X91.701 Y99.435 E5.18064
G1 F797.3 X91.712 Y99.166 E5.19411
G1 F800 X91.744 Y98.904 E5.20728
G1 X91.799 Y98.64 E5.22073
G1 F801.3 X91.901 Y98.288 E5.23899
G1 F802.7 X92.056 Y97.947 E5.25761
G1 F801.3 X92.219 Y97.661 E5.27401
G1 F798.7 X92.367 Y97.446 E5.28705
G1 X92.541 Y97.235 E5.30072
G1 F800 X92.736 Y97.036 E5.31462
G1 F797.3 X92.931 Y96.866 E5.32757
